!!!!SEGMENT: pl-wtm--r-660-m--001-009_moniuszko-stanislaw--loteryja-no-8-chor-weselny.krn
!!!cenid: 18xx:3024
!!!COM: Moniuszko, Stanisław
!!!COM-rismID: pe30008351
!!!CDT: 1819/05/05-1872/06/04
!!!CNT: Polish
!!!OPR: Loteryja
!!!OTL: No. 8 - Chór weselny
!!!OMV: 009
!!!PDT: 1846
!!!AGN: Secular
!!!YEC: Copyright 2022 Narodowy Instytut Fryderyka Chopina (https://polishscores.org)
!!!YEM: License CC-BY-4.0 (https://creativecommons.org/licenses/by/4.0)
!!!SMS-siglum: PL-Wtm
!!!SMS-shelfmark: R 660/M
!!!SMS-shelfwork: 001-009 M
!!!SMS-variant:
!!!SMS-altvar:
!!!NIFC-rismSourceID: 1001090852
!!!NIFC-rismChildID: 1001090852
!!!NIFC-islandoraID:
!!!URL-pdf-islandora:
!!!URL-scan:
!!!IIIF:
!!!ONB-nifc: UWAGA: skany 0062-0064
!!!OMD: Andante moderato.
!!!AIN: 1 bass 1 cbass 1 cello 1 clars 1 cor 1 fagot 1 flt 1 oboe 1 soprn 1 tenor 1 timpa 1 tromp 1 viola 2 violn
!!!key: D
**kern	**dynam	**kern	**dynam	**kern	**text	**kern	**text	**dynam	**kern	**text	**dynam	**kern	**dynam	**kern	**dynam	**kern	**dynam	**kern	**dynam	**kern	**dynam	**kern	**dynam	**kern	**dynam	**kern	**dynam	**kern	**dynam	**kern	**dynam
*part15	*	*part14	*	*part13	*	*part12	*	*	*part11	*	*	*part10	*	*part9	*	*part8	*	*part7	*	*part6	*	*part5	*	*part4	*	*part3	*	*part2	*	*part1	*
*staff15	*	*staff14	*	*staff13	*	*staff12	*	*	*staff11	*	*	*staff10	*	*staff9	*	*staff8	*	*staff7	*	*staff6	*	*staff5	*	*staff4	*	*staff3	*	*staff2	*	*staff1	*
*I"CB.	*	*I"Cello.	*	*I"	*	*I"	*	*	*I"Chór.	*	*	*I"Viola.	*	*I"V 2do	*	*I"Violino 1mo	*	*I"D. A. Timpani.	*	*I"in D. Trombe.	*	*I"in D. Corni.	*	*I"Fagotti.	*	*I"in A. Clarinetti.	*	*I"Oboi.	*	*I"Flauti.	*
*I'	*	*I'	*	*	*	*	*	*	*I'	*	*	*I'	*	*I'	*	*I'	*	*I'	*	*I'	*	*I'	*	*I'	*	*I'	*	*I'	*	*I'	*
*Icbass	*	*Icello	*	*Ibass	*	*Itenor	*	*	*Isoprn	*	*	*Iviola	*	*Ivioln	*	*Ivioln	*	*Itimpa	*	*Itromp	*	*Icor	*	*Ifagot	*	*Iclars	*	*Ioboe	*	*Iflt	*
*ICstr	*	*ICstr	*	*ICvox	*	*ICvox	*	*	*ICvox	*	*	*ICstr	*	*ICstr	*	*ICstr	*	*ICidio	*	*ICbras	*	*ICbras	*	*ICww	*	*ICww	*	*ICww	*	*ICww	*
*clefF4	*	*clefF4	*	*clefF4	*	*clefC4	*	*	*clefC1	*	*	*clefC3	*	*clefG2	*	*clefG2	*	*clefF4	*	*clefG2	*	*clefG2	*	*clefF4	*	*clefG2	*	*clefG2	*	*clefG2	*
*ITrd0c0	*	*	*	*	*	*	*	*	*	*	*	*	*	*	*	*	*	*	*	*ITrd-1c-2	*	*ITrd6c10	*	*	*	*ITrd2c3	*	*	*	*	*
*k[f#c#]	*	*k[f#c#]	*	*k[f#c#]	*	*k[c#f#]	*	*	*k[f#c#]	*	*	*k[f#c#]	*	*k[f#c#]	*	*k[f#c#]	*	*k[]	*	*k[f#c#]	*	*k[f#c#]	*	*k[f#c#]	*	*k[f#c#]	*	*k[f#c#]	*	*k[f#c#]	*
*D:	*	*D:	*	*D:	*	*D:	*	*	*D:	*	*	*D:	*	*D:	*	*D:	*	*D:	*	*D:	*	*D:	*	*D:	*	*D:	*	*D:	*	*D:	*
*M6/8	*	*M6/8	*	*M6/8	*	*M6/8	*	*	*M6/8	*	*	*M6/8	*	*M6/8	*	*M6/8	*	*M6/8	*	*M6/8	*	*M6/8	*	*M6/8	*	*M6/8	*	*M6/8	*	*M6/8	*
=1	=1	=1	=1	=1	=1	=1	=1	=1	=1	=1	=1	=1	=1	=1	=1	=1	=1	=1	=1	=1	=1	=1	=1	=1	=1	=1	=1	=1	=1	=1	=1
!!LO:TX:t=P:problem:all\left, middle, right:global
!!LO:TX:t=P:problem: p = "p."
!!LO:TX:t=P:problem: pp = "pp."
!!LO:TX:t=P:problem: mf = "mf."
!	!	!	!	!	!	!	!	!	!	!	!	!	!	!	!	!	!	!	!	!	!	!	!	!	!	!	!	!	!	!LO:TX:t=P:problem:znaki:f# zamiast ff#	!
!	!	!	!	!	!	!	!	!	!LO:TX:b:i:t=(&colon; Orszak weselny postępuje uroczyśćie....)	!	!	!	!	!	!	!	!	!	!	!	!	!	!	!	!	!	!	!	!	!	!
!	!	!	!	!	!	!	!	!	!LO:TX:t=P:problem:opis na mraginesie:Chór, w pionie, znaki:cc# zamiast c#	!	!	!LO:TX:t=P:problem:znaki:F# zamiast f#	!	!LO:TX:t=P:problem:znaki:f# zamiast ff#	!	!LO:TX:t=P:problem:znaki:f# zamiast ff#	!	!	!	!	!	!	!	!	!	!	!	!LO:TX:t=P:problem:znaki:f# zamiast ff#	!	!LO:TX:a:t=Lecz Kto za to zapłaci?Ф\nI ją jeszcze straciłem, o ia nieszczęsliwyФФ	!
[4.D\	p	(8DD^>/L	p	2.r	.	2.r	.	.	2.r	.	.	2.r	.	2.r	.	2.r	.	2.r	.	2.r	.	2.r	.	2.r	.	2.r	.	2.r	.	2.r	.
.	.	8AA/)	.	.	.	.	.	.	.	.	.	.	.	.	.	.	.	.	.	.	.	.	.	.	.	.	.	.	.	.	.
.	.	8D/J	.	.	.	.	.	.	.	.	.	.	.	.	.	.	.	.	.	.	.	.	.	.	.	.	.	.	.	.	.
4.D^\_	.	(8DD/L	.	.	.	.	.	.	.	.	.	.	.	.	.	.	.	.	.	.	.	.	.	.	.	.	.	.	.	.	.
.	.	8AA/)	.	.	.	.	.	.	.	.	.	.	.	.	.	.	.	.	.	.	.	.	.	.	.	.	.	.	.	.	.
.	.	8D/J	.	.	.	.	.	.	.	.	.	.	.	.	.	.	.	.	.	.	.	.	.	.	.	.	.	.	.	.	.
=2	=2	=2	=2	=2	=2	=2	=2	=2	=2	=2	=2	=2	=2	=2	=2	=2	=2	=2	=2	=2	=2	=2	=2	=2	=2	=2	=2	=2	=2	=2	=2
*	*	*rep	*	*	*	*	*	*	*	*	*	*	*	*	*	*	*	*	*	*	*	*	*	*	*	*	*	*	*	*	*
4.D^\_	.	(8DD^>/L	.	2.r	.	2.r	.	.	2.r	.	.	2.r	.	4r	.	4r	.	2.r	.	2.r	.	2.r	.	2.r	.	2.r	.	2.r	.	2.r	.
.	.	8AA/)	.	.	.	.	.	.	.	.	.	.	.	.	.	.	.	.	.	.	.	.	.	.	.	.	.	.	.	.	.
.	.	8D/J	.	.	.	.	.	.	.	.	.	.	.	8r	.	8r	.	.	.	.	.	.	.	.	.	.	.	.	.	.	.
4.D^\_	.	(8DD/L	.	.	.	.	.	.	.	.	.	.	.	4r	p	4r	p	.	.	.	.	.	.	.	.	.	.	.	.	.	.
.	.	8AA/)	.	.	.	.	.	.	.	.	.	.	.	.	.	.	.	.	.	.	.	.	.	.	.	.	.	.	.	.	.
.	.	8D/J	.	.	.	.	.	.	.	.	.	.	.	8d/	.	8f#/	.	.	.	.	.	.	.	.	.	.	.	.	.	.	.
*	*	*Xrep	*	*	*	*	*	*	*	*	*	*	*	*	*	*	*	*	*	*	*	*	*	*	*	*	*	*	*	*	*
=3	=3	=3	=3	=3	=3	=3	=3	=3	=3	=3	=3	=3	=3	=3	=3	=3	=3	=3	=3	=3	=3	=3	=3	=3	=3	=3	=3	=3	=3	=3	=3
*	*	*rep	*	*	*	*	*	*	*	*	*	*	*	*	*	*	*	*	*	*	*	*	*	*	*	*	*	*	*	*	*
4.D^\_	.	(8DD^>/L	.	2.r	.	2.r	.	.	2.r	.	.	4r	.	(4d/	.	(4f#/	.	2.r	.	2.r	.	2.r	.	2.r	.	2.r	.	2.r	.	2.r	.
.	.	8AA/)	.	.	.	.	.	.	.	.	.	.	.	.	.	.	.	.	.	.	.	.	.	.	.	.	.	.	.	.	.
!	!	!	!	!	!	!	!	!	!	!	!	!	!	!LO:ART:color=grey	!	!LO:ART:color=grey	!	!	!	!	!	!	!	!	!	!	!	!	!	!	!
.	.	8D/J	.	.	.	.	.	.	.	.	.	8r	.	8c#'/	.	8e'/	.	.	.	.	.	.	.	.	.	.	.	.	.	.	.
4.D^\_	.	(8DD/L	.	.	.	.	.	.	.	.	.	4r	.	4c#/	.	4e/	.	.	.	.	.	.	.	.	.	.	.	.	.	.	.
.	.	8AA/)	.	.	.	.	.	.	.	.	.	.	.	.	.	.	.	.	.	.	.	.	.	.	.	.	.	.	.	.	.
!	!	!	!	!	!	!	!	!	!	!	!	!	!	!LO:ART:color=grey	!	!LO:ART:color=grey	!	!	!	!	!	!	!	!	!	!	!	!	!	!	!
.	.	8D/J	.	.	.	.	.	.	.	.	.	8d\	p	8B'/	.	8g'/	.	.	.	.	.	.	.	.	.	.	.	.	.	.	.
*	*	*Xrep	*	*	*	*	*	*	*	*	*	*	*	*	*	*	*	*	*	*	*	*	*	*	*	*	*	*	*	*	*
=4	=4	=4	=4	=4	=4	=4	=4	=4	=4	=4	=4	=4	=4	=4	=4	=4	=4	=4	=4	=4	=4	=4	=4	=4	=4	=4	=4	=4	=4	=4	=4
*	*	*rep	*	*	*	*	*	*	*	*	*	*	*	*	*	*	*	*	*	*	*	*	*	*	*	*	*	*	*	*	*
4.D^\_	.	(8DD^>/L	.	2.r	.	2.r	.	.	2.r	.	.	[4.d\	.	4B/	.	4g/	.	2.r	.	2.r	.	2.r	.	2.r	.	2.r	.	2.r	.	2.r	.
.	.	8AA/)	.	.	.	.	.	.	.	.	.	.	.	.	.	.	.	.	.	.	.	.	.	.	.	.	.	.	.	.	.
!	!	!	!	!	!	!	!	!	!	!	!	!	!	!LO:ART:color=grey	!	!LO:ART:color=grey	!	!	!	!	!	!	!	!	!	!	!	!	!	!	!
.	.	8D/J	.	.	.	.	.	.	.	.	.	.	.	8A'/	.	8f#'/	.	.	.	.	.	.	.	.	.	.	.	.	.	.	.
4.D^\_	.	(8DD/L	.	.	.	.	.	.	.	.	.	4d\]	.	4A/)	.	4f#/	.	.	.	.	.	.	.	.	.	.	.	.	.	.	.
.	.	8AA/)	.	.	.	.	.	.	.	.	.	.	.	.	.	.	.	.	.	.	.	.	.	.	.	.	.	.	.	.	.
!	!	!	!	!	!	!	!	!	!	!	!	!	!	!	!	!LO:ART:color=grey	!	!	!	!	!	!	!	!	!	!	!	!	!	!	!
.	.	8D/J	.	.	.	.	.	.	.	.	.	8d\	.	8f#/	.	8a'/)	.	.	.	.	.	.	.	.	.	.	.	.	.	.	.
*	*	*Xrep	*	*	*	*	*	*	*	*	*	*	*	*	*	*	*	*	*	*	*	*	*	*	*	*	*	*	*	*	*
=5	=5	=5	=5	=5	=5	=5	=5	=5	=5	=5	=5	=5	=5	=5	=5	=5	=5	=5	=5	=5	=5	=5	=5	=5	=5	=5	=5	=5	=5	=5	=5
!	!	!	!	!	!	!	!	!	!	!	!	!LO:TX:t=P:problem:diminuendolike accent	!	!LO:TX:t=P:problem:diminuendolike accent	!	!LO:TX:t=P:problem:diminuendolike accent	!	!	!	!	!	!	!	!	!	!	!	!	!	!	!
*	*	*rep	*	*	*	*	*	*	*	*	*	*	*	*	*	*	*	*	*	*	*	*	*	*	*	*	*	*	*	*	*
4.D^\_	.	(8DD^>/L	.	2.r	.	2.r	.	.	2.r	.	.	(4c#^<\	.	(4g^/	.	(4b^/	.	2.r	.	2.r	.	2.r	.	2.r	.	2.r	.	2.r	.	2.r	.
.	.	8AA/)	.	.	.	.	.	.	.	.	.	.	.	.	.	.	.	.	.	.	.	.	.	.	.	.	.	.	.	.	.
.	.	8D/J	.	.	.	.	.	.	.	.	.	8d\)	.	8f#/	.	8a/	.	.	.	.	.	.	.	.	.	.	.	.	.	.	.
4.D^\_	.	(8DD/L	.	.	.	.	.	.	.	.	.	(4A#X\	]	4e/	]	4g/	]	.	.	.	.	.	.	.	.	.	.	.	.	.	.
.	.	8AA/)	.	.	.	.	.	.	.	.	.	.	.	.	.	.	.	.	.	.	.	.	.	.	.	.	.	.	.	.	.
!LO:TX:b:t=1:color=grey	!	!	!	!	!	!	!	!	!	!	!	!	!	!	!	!	!	!	!	!	!	!	!	!	!	!	!	!	!	!	!
.	.	8D/J	.	.	.	.	.	.	.	.	.	8B\)	.	8d/)	.	8f#/)	.	.	.	.	.	.	.	.	.	.	.	.	.	.	.
*	*	*Xrep	*	*	*	*	*	*	*	*	*	*	*	*	*	*	*	*	*	*	*	*	*	*	*	*	*	*	*	*	*
=6	=6	=6	=6	=6	=6	=6	=6	=6	=6	=6	=6	=6	=6	=6	=6	=6	=6	=6	=6	=6	=6	=6	=6	=6	=6	=6	=6	=6	=6	=6	=6
*	*	*rep	*	*	*	*	*	*	*	*	*	*	*	*	*	*	*	*	*	*	*	*	*	*	*	*	*	*	*	*	*
4.D^\_	.	(8DD^>/L	.	2.r	.	2.r	.	.	2.r	.	.	(4B#X\	.	(4f#/	.	(4a/	.	2.r	.	2.r	.	2.r	.	2.r	.	2.r	.	2.r	.	2.r	.
.	.	8AA/)	.	.	.	.	.	.	.	.	.	.	.	.	.	.	.	.	.	.	.	.	.	.	.	.	.	.	.	.	.
.	.	8D/J	.	.	.	.	.	.	.	.	.	8c#\	.	8e/	.	8g/	.	.	.	.	.	.	.	.	.	.	.	.	.	.	.
4.D^\_	.	(8DD/L	.	.	.	.	.	.	.	.	.	8A\)	.	8A/)	.	8e/)	.	.	.	.	.	.	.	.	.	.	.	.	.	.	.
.	.	8AA/)	.	.	.	.	.	.	.	.	.	8r	.	8r	.	8r	.	.	.	.	.	.	.	.	.	.	.	.	.	.	.
.	.	8D/J	.	.	.	.	.	.	.	.	.	8A/	.	8d/	.	8f#/	.	.	.	.	.	.	.	.	.	.	.	.	.	.	.
*	*	*Xrep	*	*	*	*	*	*	*	*	*	*	*	*	*	*	*	*	*	*	*	*	*	*	*	*	*	*	*	*	*
=7	=7	=7	=7	=7	=7	=7	=7	=7	=7	=7	=7	=7	=7	=7	=7	=7	=7	=7	=7	=7	=7	=7	=7	=7	=7	=7	=7	=7	=7	=7	=7
*	*	*rep	*	*	*	*	*	*	*	*	*	*	*	*	*	*	*	*	*	*	*	*	*	*	*	*	*	*	*	*	*
4.D^\_	.	(8DD^>/L	.	2.r	.	2.r	.	.	2.r	.	.	[4.A/	.	(4d/	.	(4f#/	.	2.r	.	2.r	.	2.r	.	2.r	.	2.r	.	2.r	.	2.r	.
.	.	8AA/)	.	.	.	.	.	.	.	.	.	.	.	.	.	.	.	.	.	.	.	.	.	.	.	.	.	.	.	.	.
.	.	8D/J	.	.	.	.	.	.	.	.	.	.	.	8c#/	.	8e/	.	.	.	.	.	.	.	.	.	.	.	.	.	.	.
4.D^\_	.	(8DD/L	.	.	.	.	.	.	.	.	.	8A/]	.	4c#/	.	4f#/	.	.	.	.	.	.	.	.	.	.	.	.	.	.	.
.	.	8AA/)	.	.	.	.	.	.	.	.	.	8r	.	.	.	.	.	.	.	.	.	.	.	.	.	.	.	.	.	.	.
.	.	8D/J	.	.	.	.	.	.	.	.	.	8d\	.	8B/	.	8g/	.	.	.	.	.	.	.	.	.	.	.	.	.	.	.
!!pagebreak:original
*	*	*Xrep	*	*	*	*	*	*	*	*	*	*	*	*	*	*	*	*	*	*	*	*	*	*	*	*	*	*	*	*	*
=8	=8	=8	=8	=8	=8	=8	=8	=8	=8	=8	=8	=8	=8	=8	=8	=8	=8	=8	=8	=8	=8	=8	=8	=8	=8	=8	=8	=8	=8	=8	=8
!LO:TX:t=P:problem:opis na marginesie: CB.	!	!LO:TX:a:t=P:problem:opis na marginesie: Cello.	!	!	!	!	!	!	!	!	!	!	!	!	!	!	!	!	!	!	!	!	!	!	!	!	!	!	!	!	!
!	!	!LO:TX:t=P:problem:t. 8-23 – vc zapisane nad vl 1	!	!	!	!	!	!	!	!	!	!	!	!	!	!	!	!	!	!	!	!	!	!	!	!	!	!	!	!	!
!	!	!	!	!	!	!	!	!	!	!	!	!	!	!	!	!LO:TX:t=P:problem:opis na marginesie: V. 1mo	!	!	!	!	!	!	!	!	!	!	!	!	!	!	!
4.D\]	.	(8DD/L	.	2.r	.	2.r	.	.	2.r	.	.	[4.d\	.	4B/	.	4g/	.	2.r	.	2.r	.	2.r	.	2.r	.	2.r	.	2.r	.	2.r	.
.	.	8AA/)	.	.	.	.	.	.	.	.	.	.	.	.	.	.	.	.	.	.	.	.	.	.	.	.	.	.	.	.	.
.	.	8D/J	.	.	.	.	.	.	.	.	.	.	.	8A/)	.	8f#/	.	.	.	.	.	.	.	.	.	.	.	.	.	.	.
*	*	*rep	*	*	*	*	*	*	*	*	*	*	*	*	*	*	*	*	*	*	*	*	*	*	*	*	*	*	*	*	*
4D\	.	(8DD/L	.	.	.	.	.	.	.	.	.	4d\]	.	4A/	.	4f#/	.	.	.	.	.	.	.	.	.	.	.	.	.	.	.
.	.	8AA/)	.	.	.	.	.	.	.	.	.	.	.	.	.	.	.	.	.	.	.	.	.	.	.	.	.	.	.	.	.
!LO:TX:t=P:problem:niewyraźne źródło	!	!	!	!	!	!	!	!	!	!	!	!	!	!	!	!	!	!	!	!	!	!	!	!	!	!	!	!	!	!	!
8F#\	.	8D/J	.	.	.	.	.	.	.	.	.	8r	.	8d/	.	8a/)	.	.	.	.	.	.	.	.	.	.	.	.	.	.	.
*	*	*Xrep	*	*	*	*	*	*	*	*	*	*	*	*	*	*	*	*	*	*	*	*	*	*	*	*	*	*	*	*	*
=9	=9	=9	=9	=9	=9	=9	=9	=9	=9	=9	=9	=9	=9	=9	=9	=9	=9	=9	=9	=9	=9	=9	=9	=9	=9	=9	=9	=9	=9	=9	=9
!	!	!LO:TX:t=P:problem:mixed beam	!	!	!	!	!	!	!	!	!	!	!	!	!	!LO:TX:t=P:problem:diminuendolike accent	!	!	!	!	!	!	!	!	!	!	!	!	!	!	!
4G\	.	8GG/L	.	2.r	.	2.r	.	.	2.r	.	.	4B/	.	[4.d/	.	(4b^/	.	2.r	.	2.r	.	2.r	.	2.r	.	2.r	.	2.r	.	2.r	.
.	.	8G\	.	.	.	.	.	.	.	.	.	.	.	.	.	.	.	.	.	.	.	.	.	.	.	.	.	.	.	.	.
8F#\	.	8F#\J	.	.	.	.	.	.	.	.	.	8A/	.	.	.	8a/)	.	.	.	.	.	.	.	.	.	.	.	.	.	.	.
4E\	.	4E\	.	.	.	.	.	.	.	.	.	4B/	.	4d/]	.	(8g/L	.	.	.	.	.	.	.	.	.	.	.	.	.	.	.
.	.	.	.	.	.	.	.	.	.	.	.	.	.	.	.	8f#/)	.	.	.	.	.	.	.	.	.	.	.	.	.	.	.
8AA/	.	8AA/	.	.	.	.	.	.	.	.	.	8c#/	.	8A/	.	8e/J	.	.	.	.	.	.	.	.	.	.	.	.	.	.	.
=10	=10	=10	=10	=10	=10	=10	=10	=10	=10	=10	=10	=10	=10	=10	=10	=10	=10	=10	=10	=10	=10	=10	=10	=10	=10	=10	=10	=10	=10	=10	=10
*	*	*	*	*	*	*	*	*	*	*	*	*	*	*	*	*	*	*	*	*	*	*^	*	*^	*	*	*	*	*	*^	*
*	*	*	*	*	*	*	*	*	*	*	*	*	*	*	*	*	*	*	*	*	*	*	*	*	*	*2\right	*	*	*	*	*	*	*	*
[4.D^\	.	(8DD/L	.	4r	.	4r	.	.	4r	.	.	(4d/	.	(4d/	.	[4.d/	.	2.r	.	2.r	.	4r	2.rA	.	8r	[2.DD\	.	4r	.	4r	.	4r	4ryy	.
.	.	8AA/)	.	.	.	.	.	.	.	.	.	.	.	.	.	.	.	.	.	.	.	.	.	.	8AA/L	.	.	.	.	.	.	.	.	.
.	.	8D/J	.	8r	.	8r	.	.	8r	.	.	8F#/	.	8A/	.	.	.	.	.	.	.	8r	.	.	[<8D/J	.	.	8r	.	8r	.	8r	8ryy	.
*	*	*rep	*	*	*	*	*	*	*	*	*	*	*	*	*	*	*	*	*	*	*	*	*	*	*	*	*	*	*	*	*	*	*	*
4.D^\_	.	(8DD/L	.	4r	.	4r	.	.	4r	.	.	8A/)	.	8f#/)	.	4d/]	.	.	.	.	.	[4.A/	.	.	8D/L]	.	.	4r	.	4r	.	4r	4ryy	.
.	.	8AA/)	.	.	.	.	.	.	.	.	.	8r	.	8r	.	.	.	.	.	.	.	.	.	.	8AA/	.	.	.	.	.	.	.	.	.
!	!	!	!	!	!	!	!	!LO:DY:rj:a	!	!	!	!	!	!	!	!	!	!	!	!	!	!	!	!	!	!	!	!	!	!	!	!LO:TX:a:i:t=dolce assai.	!	!
!	!	!	!	!	!	!	!	!	!	!	!	!	!	!	!	!	!	!	!	!	!	!	!	!	!	!	!	!	!	!	!	!	!	!LO:DY:rj
.	.	8D/J	.	8D\	Nie	8d\	Nie	pp	8f#/	Nie	.	8d\	.	8f#/	.	8r	.	.	.	.	.	.	.	.	[<8D/J	.	.	8f# 8d/	p	8dd 8f#/	p	8ff#/	8ff#\	p
*	*	*Xrep	*	*	*	*	*	*	*	*	*	*	*	*	*	*	*	*	*	*	*	*	*	*	*	*	*	*	*	*	*	*	*	*
!!LO:TX:a:B:t=A
=11	=11	=11	=11	=11	=11	=11	=11	=11	=11	=11	=11	=11	=11	=11	=11	=11	=11	=11	=11	=11	=11	=11	=11	=11	=11	=11	=11	=11	=11	=11	=11	=11	=11	=11
*	*	*	*	*	*ij	*	*ij	*	*	*	*	*	*	*	*	*	*	*	*	*	*	*	*2\right	*	*	*	*	*	*	*	*	*	*	*
*rep	*	*rep	*	*	*	*	*	*	*	*	*	*	*	*	*	*	*	*	*	*	*	*	*	*	*	*	*	*	*	*	*	*	*	*
!	!	!	!	!	!	!	!	!	!	!	!	!	!	!	!	!	!	!	!	!	!	!	!	!	!	!	!	!	!	!LO:TX:a:i:t=dolcissimo.	!	!	!	!
!	!	!	!	!	!	!	!	!	!	!	!	!	!	!	!	!	!	!	!	!	!	!	!	!	!	!LO:N:vis=2	!	!	!	!	!	!	!	!
4.D^\_	.	(8DD/L	.	4D\	go-	4d\	go-	.	4f#/	go-	.	(4d\	.	(4f#/	.	(16d/LL	.	2.r	.	2.r	.	2.A/_	[2.D\	.	8D/L]	2.DD\]	.	(4f# 4d/	.	(4dd 4f#/	.	(4ff#/	4ff#\	.
.	.	.	.	.	.	.	.	.	.	.	.	.	.	.	.	16f#/)	.	.	.	.	.	.	.	.	.	.	.	.	.	.	.	.	.	.
.	.	8AA/)	.	.	.	.	.	.	.	.	.	.	.	.	.	16a/	.	.	.	.	.	.	.	.	8AA/	.	.	.	.	.	.	.	.	.
.	.	.	.	.	.	.	.	.	.	.	.	.	.	.	.	16dd/	.	.	.	.	.	.	.	.	.	.	.	.	.	.	.	.	.	.
.	.	8D/J	.	8D\	-niąc	8c#\	-niąc	.	8e/	-niąc	.	8c#\)	.	8e/)	.	16a'/	.	.	.	.	.	.	.	.	[<8D/J	.	.	8e 8c#/	.	8cc# 8e/	.	8ee/	8ee\	.
.	.	.	.	.	.	.	.	.	.	.	.	.	.	.	.	16a'/JJ	.	.	.	.	.	.	.	.	.	.	.	.	.	.	.	.	.	.
4.D^\_	.	(8DD/L	.	4D\	.	4c#\	za	.	4e/	za	.	(4c#\	.	(4e/	.	(16a\LL	.	.	.	.	.	.	.	.	8D/L]	.	.	4e 4c#/	.	4cc# 4e/	.	4ee/	4ee\	.
.	.	.	.	.	.	.	.	.	.	.	.	.	.	.	.	16cc#\	.	.	.	.	.	.	.	.	.	.	.	.	.	.	.	.	.	.
.	.	8AA/)	.	.	.	.	.	.	.	.	.	.	.	.	.	16ee\)	.	.	.	.	.	.	.	.	8AA/	.	.	.	.	.	.	.	.	.
.	.	.	.	.	.	.	.	.	.	.	.	.	.	.	.	16aa\	.	.	.	.	.	.	.	.	.	.	.	.	.	.	.	.	.	.
!LO:TX:b:t=2:color=grey	!	!	!	!	!	!	!	!	!	!	!	!	!	!	!	!	!	!	!	!	!	!	!	!	!	!	!	!	!	!	!	!	!	!
.	.	8D/J	.	8D\	for-	8B\	for-	.	8g/	for-	.	8B\)	.	8g/)	.	16dd'\	.	.	.	.	.	.	.	.	[<8D/J	.	.	8g 8d/	.	8b 8g/	.	8gg/	8gg\	.
.	.	.	.	.	.	.	.	.	.	.	.	.	.	.	.	16dd'\JJ	.	.	.	.	.	.	.	.	.	.	.	.	.	.	.	.	.	.
*Xrep	*	*Xrep	*	*	*	*	*	*	*	*	*	*	*	*	*	*	*	*	*	*	*	*	*	*	*	*	*	*	*	*	*	*	*	*
=12	=12	=12	=12	=12	=12	=12	=12	=12	=12	=12	=12	=12	=12	=12	=12	=12	=12	=12	=12	=12	=12	=12	=12	=12	=12	=12	=12	=12	=12	=12	=12	=12	=12	=12
*rep	*	*rep	*	*	*	*	*	*	*	*	*	*	*	*	*	*	*	*	*	*	*	*rep	*rep	*	*rep	*rep	*	*	*	*	*	*	*	*
!	!	!	!	!	!	!	!	!	!	!	!	!	!	!	!	!	!	!	!	!	!	!	!LO:TX:t=P:problem:t. 12-15 – łuki między taktami	!	!LO:TX:t=P:problem:t. 12-15 – łuki między taktami	!LO:N:vis=2	!	!	!	!	!	!	!	!
4.D^\_	.	(8DD/L	.	4D\	-tu-	4B\	-tu-	.	4g/	-tu-	.	(4B\	.	(4g/	.	(16dd\LL	.	2.r	.	2.r	.	2.A/]	2.D\_	.	8D/L]	2.DD\	.	4g 4d/	.	4b 4g/	.	4gg/	4gg\	.
.	.	.	.	.	.	.	.	.	.	.	.	.	.	.	.	16gg\	.	.	.	.	.	.	.	.	.	.	.	.	.	.	.	.	.	.
.	.	8AA/)	.	.	.	.	.	.	.	.	.	.	.	.	.	16bb\)	.	.	.	.	.	.	.	.	8AA/	.	.	.	.	.	.	.	.	.
.	.	.	.	.	.	.	.	.	.	.	.	.	.	.	.	16ddd\	.	.	.	.	.	.	.	.	.	.	.	.	.	.	.	.	.	.
.	.	8D/J	.	8D\	-ny	8A\	-ny	.	8f#/	-ny	.	8A\)	.	8f#/)	.	16dd'\	.	.	.	.	.	.	.	.	[8D/J	.	.	8f# 8d/	.	8a 8f#/	.	8ff#/)	8ff#\	.
.	.	.	.	.	.	.	.	.	.	.	.	.	.	.	.	16dd'\JJ	.	.	.	.	.	.	.	.	.	.	.	.	.	.	.	.	.	.
4.D^\_	.	(8DD/L	.	4D\	ma-	4A\	ma-	.	4f#/	ma-	.	8A\	.	8f#/	.	(16dd\LL	.	.	.	.	.	.	.	.	8D/L]	.	.	8f# 8d/)	.	8a 8f#/)	.	8ff#/	8ff#\	.
.	.	.	.	.	.	.	.	.	.	.	.	.	.	.	.	16aa\	.	.	.	.	.	.	.	.	.	.	.	.	.	.	.	.	.	.
.	.	8AA/)	.	.	.	.	.	.	.	.	.	8r	.	8r	.	16ff#\)	.	.	.	.	.	.	.	.	8AA/	.	.	8r	.	8r	.	8r	8ryy	.
.	.	.	.	.	.	.	.	.	.	.	.	.	.	.	.	16dd\	.	.	.	.	.	.	.	.	.	.	.	.	.	.	.	.	.	.
.	.	8D/J	.	8D\	-rą	8d\	-rą	.	8a\	-rą	.	8f#\	.	8a/	.	16a'\	.	.	.	.	.	.	.	.	[8D/J	.	.	8a 8f#/	.	8dd 8f#/	.	8aa/	8aa\	.
.	.	.	.	.	.	.	.	.	.	.	.	.	.	.	.	16a'\JJ	.	.	.	.	.	.	.	.	.	.	.	.	.	.	.	.	.	.
*Xrep	*	*Xrep	*	*	*	*	*	*	*	*	*	*	*	*	*	*	*	*	*	*	*	*Xrep	*Xrep	*	*Xrep	*Xrep	*	*	*	*	*	*	*	*
=13	=13	=13	=13	=13	=13	=13	=13	=13	=13	=13	=13	=13	=13	=13	=13	=13	=13	=13	=13	=13	=13	=13	=13	=13	=13	=13	=13	=13	=13	=13	=13	=13	=13	=13
*rep	*	*rep	*	*	*	*	*	*	*	*	*	*	*	*	*	*	*	*	*	*	*	*	*	*	*rep	*rep	*	*	*	*	*	*	*	*
!	!	!	!	!	!	!	!	!	!	!	!	!LO:TX:t=P:problem:diminuendolike accent	!	!	!	!	!	!	!	!	!	!LO:TX:t=P:problem:t. 13-14 – usunięty znak powtórki	!	!	!	!LO:N:vis=2	!	!	!	!	!	!	!LO:TX:t=NB:color=grey	!
4.D^\_	.	(8DD/L	.	4G\	w ci-	(4c#\	w ci-	.	(4b\	w ci-	.	(4c#^<\	.	(4b/	.	(16g/LL	.	2.r	.	2.r	.	2.d/	2.D\_	.	8D/L]	2.DD\	.	(4cc# 4g\	.	(4cc# 4e/	.	(4bb/	4bb\	.
.	.	.	.	.	.	.	.	.	.	.	.	.	.	.	.	16f#/	.	.	.	.	.	.	.	.	.	.	.	.	.	.	.	.	.	.
.	.	8AA/)	.	.	.	.	.	.	.	.	.	.	.	.	.	16g/	.	.	.	.	.	.	.	.	8AA/	.	.	.	.	.	.	.	.	.
.	.	.	.	.	.	.	.	.	.	.	.	.	.	.	.	16b/)	.	.	.	.	.	.	.	.	.	.	.	.	.	.	.	.	.	.
.	.	8D/J	.	8F#\	.	8d\)	.	.	8a\)	.	.	8d\)	.	8a/)	.	(16a/	.	.	.	.	.	.	.	.	[8D/J	.	.	8dd 8f#\	.	8dd 8f#/	.	8aa/	8aa\	.
.	.	.	.	.	.	.	.	.	.	.	.	.	.	.	.	16dd/JJ)	.	.	.	.	.	.	.	.	.	.	.	.	.	.	.	.	.	.
!	!	!	!	!	!	!	!	!	!	!	!	!LO:TX:t=P:problem:diminuendolike accent	!	!	!	!	!	!	!	!	!	!	!	!	!	!	!	!	!	!	!	!	!	!
4.D^\_	.	(8DD/L	.	4E\	-chej	4e\	-chej	.	4g/	-chej	.	(4A#X^<\	.	(4g/	.	(16cc#\LL	.	.	.	.	.	.	.	.	8D/L]	.	.	4b-X 4c#\	.	4ee 4g/	.	4gg/	4gg\	.
.	.	.	.	.	.	.	.	.	.	.	.	.	.	.	.	16b\	.	.	.	.	.	.	.	.	.	.	.	.	.	.	.	.	.	.
.	.	8AA/)	.	.	.	.	.	.	.	.	.	.	.	.	.	16cc#\	.	.	.	.	.	.	.	.	8AA/	.	.	.	.	.	.	.	.	.
.	.	.	.	.	.	.	.	.	.	.	.	.	.	.	.	16ee\)	.	.	.	.	.	.	.	.	.	.	.	.	.	.	.	.	.	.
.	.	8D/J	.	8D\	mier-	8f#\	mier-	.	8f#/	mier-	.	8B\)	.	8f#/)	.	(16dd\	.	.	.	.	.	.	.	.	[8D/J	.	.	8a 8d\)	.	8dd 8f#/)	.	8ff#/)	8ff#\	.
.	.	.	.	.	.	.	.	.	.	.	.	.	.	.	.	16ff#\JJ)	.	.	.	.	.	.	.	.	.	.	.	.	.	.	.	.	.	.
*Xrep	*	*Xrep	*	*	*	*	*	*	*	*	*	*	*	*	*	*	*	*	*	*	*	*	*	*	*Xrep	*Xrep	*	*	*	*	*	*	*	*
=14	=14	=14	=14	=14	=14	=14	=14	=14	=14	=14	=14	=14	=14	=14	=14	=14	=14	=14	=14	=14	=14	=14	=14	=14	=14	=14	=14	=14	=14	=14	=14	=14	=14	=14
*	*	*	*	*	*	*	*	*	*	*	*	*	*	*	*	*	*	*	*	*	*	*	*	*	*	*	*	*^	*	*	*	*	*	*
*rep	*	*rep	*	*	*	*	*	*	*	*	*	*	*	*	*	*	*	*	*	*	*	*	*	*	*rep	*rep	*	*	*	*	*	*	*	*	*
!	!	!	!	!	!	!	!	!	!	!	!	!	!	!	!	!	!	!	!	!	!	!	!	!	!	!LO:N:vis=2	!	!	!	!	!	!	!	!	!
4.D^\_	.	(8DD/L	.	4.AA/	-noś-	(4e\	-noś-	.	(4a/	-noś-	.	4c#\	.	4e 4A/	.	(16ee\LL	.	2.r	.	2.r	.	[2.A/	2.D\_	.	8D/L]	2.DD\	.	(4a/	4a\	.	[4.cc# [4.a\	.	(4aa/	4aa\	.
.	.	.	.	.	.	.	.	.	.	.	.	.	.	.	.	16aa\	.	.	.	.	.	.	.	.	.	.	.	.	.	.	.	.	.	.	.
.	.	8AA/)	.	.	.	.	.	.	.	.	.	.	.	.	.	16ee\)	.	.	.	.	.	.	.	.	8AA/	.	.	.	.	.	.	.	.	.	.
.	.	.	.	.	.	.	.	.	.	.	.	.	.	.	.	16cc#\	.	.	.	.	.	.	.	.	.	.	.	.	.	.	.	.	.	.	.
.	.	8D/J	.	.	.	8c#\)	.	.	8g/)	.	.	8c#\	.	8e 8A/	.	16a'\	.	.	.	.	.	.	.	.	[8D/J	.	.	8g/	8g\	.	.	.	8gg/	8gg\	.
.	.	.	.	.	.	.	.	.	.	.	.	.	.	.	.	16a'\JJ	.	.	.	.	.	.	.	.	.	.	.	.	.	.	.	.	.	.	.
4.D^\_	.	(8DD/L	.	8AA/	-ci	8A\	-ci	.	8e/	-ci	.	8c#\	.	8e 8A/	.	(16cc#\LL	.	.	.	.	.	.	.	.	8D/L]	.	.	8e/)	8e\	.	8cc#] 8a\]	.	8ee/)	8ee\	.
.	.	.	.	.	.	.	.	.	.	.	.	.	.	.	.	16b\	.	.	.	.	.	.	.	.	.	.	.	.	.	.	.	.	.	.	.
.	.	8AA/)	.	8r	.	8r	.	.	8r	.	.	8r	.	8r	.	16a\)	.	.	.	.	.	.	.	.	8AA/	.	.	8r	8ryy	.	8r	.	8r	8ryy	.
.	.	.	.	.	.	.	.	.	.	.	.	.	.	.	.	16g\	.	.	.	.	.	.	.	.	.	.	.	.	.	.	.	.	.	.	.
.	.	8D/J	.	8D/	wśród	8d\	wśród	.	8f#/	wśród	.	8d\	.	8f#/	.	16f#\	.	.	.	.	.	.	.	.	[8D/J	.	.	8f# 8d/	8ryy	.	8dd 8f#/	.	8ff#/	8ff#\	.
.	.	.	.	.	.	.	.	.	.	.	.	.	.	.	.	16e\JJ	.	.	.	.	.	.	.	.	.	.	.	.	.	.	.	.	.	.	.
*	*	*	*	*	*	*	*	*	*	*	*	*	*	*	*	*	*	*	*	*	*	*	*	*	*	*	*	*v	*v	*	*	*	*	*	*
*Xrep	*	*Xrep	*	*	*	*	*	*	*	*	*	*	*	*	*	*	*	*	*	*	*	*	*	*	*Xrep	*Xrep	*	*	*	*	*	*	*	*
=15	=15	=15	=15	=15	=15	=15	=15	=15	=15	=15	=15	=15	=15	=15	=15	=15	=15	=15	=15	=15	=15	=15	=15	=15	=15	=15	=15	=15	=15	=15	=15	=15	=15	=15
*rep	*	*rep	*	*	*	*	*	*	*	*	*	*	*	*	*	*	*	*	*	*	*	*rep	*rep	*	*rep	*rep	*	*	*	*	*	*	*	*
!	!	!	!	!	!	!	!	!	!	!	!	!	!	!	!	!	!	!	!	!	!	!	!	!	!	!LO:N:vis=2	!	!	!	!	!	!	!	!
4.D^\_	.	(8DD/L	.	4D/	da-	4d\	da-	.	4f#/	da-	.	(4d\	.	(4f#/	.	(16d/LL	.	2.r	.	2.r	.	2.A/]	2.D\_	.	8D/L]	2.DD\	.	(4f# 4d/	.	(4dd 4f#/	.	(4ff#/	4ff#\	.
.	.	.	.	.	.	.	.	.	.	.	.	.	.	.	.	16f#/)	.	.	.	.	.	.	.	.	.	.	.	.	.	.	.	.	.	.
.	.	8AA/)	.	.	.	.	.	.	.	.	.	.	.	.	.	16a/	.	.	.	.	.	.	.	.	8AA/	.	.	.	.	.	.	.	.	.
.	.	.	.	.	.	.	.	.	.	.	.	.	.	.	.	16dd/	.	.	.	.	.	.	.	.	.	.	.	.	.	.	.	.	.	.
.	.	8D/J	.	8D/	-rów	8c#\	-rów	.	8e/	-rów	.	8c#\)	.	8e/)	.	16a'/	.	.	.	.	.	.	.	.	[8D/J	.	.	8e 8c#/	.	8cc# 8e/	.	8ee/	8ee\	.
.	.	.	.	.	.	.	.	.	.	.	.	.	.	.	.	16a'/JJ	.	.	.	.	.	.	.	.	.	.	.	.	.	.	.	.	.	.
[4.D^\]	.	(8DD/L	.	4D/	szczę-	4c#\	szczę-	.	4e/	szczę-	.	(4c#\	.	(4e/	.	(16a\LL	.	.	.	.	.	.	.	.	8D/L]	.	.	4e 4c#/	.	4cc# 4e/	.	4ee/	4ee\	.
.	.	.	.	.	.	.	.	.	.	.	.	.	.	.	.	16cc#\)	.	.	.	.	.	.	.	.	.	.	.	.	.	.	.	.	.	.
.	.	8AA/)	.	.	.	.	.	.	.	.	.	.	.	.	.	16ee\	.	.	.	.	.	.	.	.	8AA/	.	.	.	.	.	.	.	.	.
.	.	.	.	.	.	.	.	.	.	.	.	.	.	.	.	16aa\	.	.	.	.	.	.	.	.	.	.	.	.	.	.	.	.	.	.
.	.	8D/J	.	8D/	-śćia	8B\	-śćia	.	8g/	-śćia	.	8B\)	.	8g/)	.	16dd'\	.	.	.	.	.	.	.	.	[8D/J	.	.	8g 8d/	.	8b 8g/	.	8gg/	8gg\	.
.	.	.	.	.	.	.	.	.	.	.	.	.	.	.	.	16dd'\JJ	.	.	.	.	.	.	.	.	.	.	.	.	.	.	.	.	.	.
*Xrep	*	*Xrep	*	*	*	*	*	*	*	*	*	*	*	*	*	*	*	*	*	*	*	*Xrep	*Xrep	*Xrep	*Xrep	*Xrep	*	*	*	*	*	*	*	*
*	*	*	*	*	*	*	*	*	*	*	*	*	*	*	*	*	*	*	*	*	*	*v	*v	*	*	*	*	*	*	*	*	*	*	*
!!pagebreak:original
*Xrep	*	*Xrep	*	*	*	*	*	*	*	*	*	*	*	*	*	*	*	*	*	*	*	*Xrep	*Xrep	*Xrep	*Xrep	*Xrep	*	*	*	*	*	*	*
=16	=16	=16	=16	=16	=16	=16	=16	=16	=16	=16	=16	=16	=16	=16	=16	=16	=16	=16	=16	=16	=16	=16	=16	=16	=16	=16	=16	=16	=16	=16	=16	=16	=16
!LO:TX:t=P:problem:brak zakończenia łuku	!	!	!	!	!	!	!	!	!	!	!	!	!	!	!	!	!	!	!	!	!	!	!	!LO:TX:t=P:problem:brak zakończenia łuku	!	!	!	!	!	!	!	!	!
4.D\]	.	8DD/L	.	4D\	i	4B\	i	.	4g/	i	.	4B/	.	4g/	.	(16dd\LL	.	2.r	.	2.r	.	[4.d 4.D/_	.	8D/L]	[4.DD\	.	4g 4d/	.	4b 4g/	.	4gg/	4gg\	.
.	.	.	.	.	.	.	.	.	.	.	.	.	.	.	.	16gg\)	.	.	.	.	.	.	.	.	.	.	.	.	.	.	.	.	.
.	.	8AA/	.	.	.	.	.	.	.	.	.	.	.	.	.	16bb\	.	.	.	.	.	.	.	8AA/	.	.	.	.	.	.	.	.	.
.	.	.	.	.	.	.	.	.	.	.	.	.	.	.	.	16ddd\	.	.	.	.	.	.	.	.	.	.	.	.	.	.	.	.	.
.	.	8D/J	.	8D\	mi-	8A\	mi-	.	8f#/	mi-	.	8A/	.	8f#/	.	16dd\	.	.	.	.	.	.	.	8D/J	.	.	8f# 8d/	.	8a 8f#/)	.	8ff#/	8ff#\	.
.	.	.	.	.	.	.	.	.	.	.	.	.	.	.	.	16dd\JJ	.	.	.	.	.	.	.	.	.	.	.	.	.	.	.	.	.
!LO:TX:b:t=[[3]] :color=grey	!	!	!	!	!	!	!	!	!	!	!	!	!	!	!	!	!	!	!	!	!	!	!	!	!	!	!	!	!	!	!	!	!
4D\	.	8DD/L	.	8D\	-ło-	8A\	-ło-	.	8f#/	-ło-	.	8A/L	.	8f#/L	.	(16dd\LL	.	.	.	.	.	4d] 4D/]	.	8r	4DD\]	.	8f# 8d/)	.	8a 8f#/	.	8ff#/)	8ff#\	.
.	.	.	.	.	.	.	.	.	.	.	.	.	.	.	.	16aa\)	.	.	.	.	.	.	.	.	.	.	.	.	.	.	.	.	.
.	.	8D/	.	8D\	-śći	8F#/	-śći	.	8f#/	-śći	.	8F#/	.	8d/	.	16ff#\	.	.	.	.	.	.	.	8D/L	.	.	8r	.	8r	.	8r	8ryy	.
.	.	.	.	.	.	.	.	.	.	.	.	.	.	.	.	16dd\	.	.	.	.	.	.	.	.	.	.	.	.	.	.	.	.	.
!	!	!	!	!	!	!	!	!	!	!	!	!	!	!LO:TX:t=P:problem:8g poprawione na 8a	!	!	!	!	!	!	!	!	!	!	!	!	!	!	!	!	!	!	!
8F#\	.	8F#/J	.	8D\	zyj	8D/	zyj	.	8a/	zyj	.	8D/J	.	8a/J	.	16a\	.	.	.	.	.	8d 8D/	.	8F#/J	8FF#\	.	8a 8d/	.	8dd 8a\	.	8aa/	8aa\	.
.	.	.	.	.	.	.	.	.	.	.	.	.	.	.	.	16f#\JJ	.	.	.	.	.	.	.	.	.	.	.	.	.	.	.	.	.
=17	=17	=17	=17	=17	=17	=17	=17	=17	=17	=17	=17	=17	=17	=17	=17	=17	=17	=17	=17	=17	=17	=17	=17	=17	=17	=17	=17	=17	=17	=17	=17	=17	=17
*	*	*	*	*	*	*	*	*	*	*	*	*	*	*	*	*	*	*	*	*	*	*	*	*	*	*	*^	*	*	*	*	*	*
!	!	!	!	!	!	!	!	!	!	!	!	!	!	!	!	!LO:TX:t=P:problem:mixed beam	!	!	!	!	!	!	!	!	!	!	!	!	!	!	!	!	!	!
4G\	.	(8G\L	sf >	4G\	dłu-	4d\	dłu-	.	4b\	dłu-	.	(8G/L	sf >	(8b/L	sf >	16d/LL	>	2.r	.	2.r	.	4d 4D/	sf >	(<8G/L	4GG\	sf >	(>4b 4d/	4ryy	sf >	(4dd 4b\	sf >	(4bb/	4bb\	sf >
.	.	.	.	.	.	.	.	.	.	.	.	.	.	.	.	16dd\	.	.	.	.	.	.	.	.	.	.	.	.	.	.	.	.	.	.
.	.	8D\)	.	.	.	.	.	.	.	.	.	8d/)	.	8d/)	.	16bb'\	.	.	.	.	.	.	.	8D/)	.	.	.	.	.	.	.	.	.	.
.	.	.	.	.	.	.	.	.	.	.	.	.	.	.	.	16dd'\	.	.	.	.	.	.	.	.	.	.	.	.	.	.	.	.	.	.
8F#\	.	8F#\J	.	8F#\	-go	8d\	-go	.	8a\	-go	.	8F#/J	.	8a/J	.	16aa'\	.	.	.	.	.	8d 8D/	.	8F#/J	8FF#\	.	8a 8d/	8ryy	.	8dd 8a\	.	8aa/	8aa\	.
.	.	.	.	.	.	.	.	.	.	.	.	.	.	.	.	16dd'\JJ	.	.	.	.	.	.	.	.	.	.	.	.	.	.	.	.	.	.
!LO:TX:b:t=3:color=grey	!	!	!	!	!	!	!	!	!	!	!	!	!	!	!	!	!	!	!	!	!	!	!	!	!	!	!	!	!	!	!	!	!	!
4B\	.	(8B\L	.	4B\	mło-	4d\	mło-	.	4f#/	mło-	.	(8B/L	.	(8f#/L	.	(16ff#\LL	.	.	.	.	.	4d 4D/	.	(<8B/L	4BB\	.	4f#/	4f#\	.	4ff# 4f#\	.	4ff#/	4ff#\	.
.	.	.	.	.	.	.	.	.	.	.	.	.	.	.	.	16b\)	.	.	.	.	.	.	.	.	.	.	.	.	.	.	.	.	.	.
.	.	8F#\)	]	.	.	.	.	.	.	.	.	8D/)	]	8B/)	]	16ff#'\	]	.	.	.	.	.	.	8F#/)	.	.	.	.	.	.	.	.	.	.
.	.	.	.	.	.	.	.	.	.	.	.	.	.	.	.	16f#'\	.	.	.	.	.	.	.	.	.	.	.	.	.	.	.	.	.	.
8BB/	.	8B\J	.	8B\	-da	8F#/	-da	.	8d/	-da	.	8F#/J	.	8d/J	.	16dd'\	.	.	.	.	.	8d 8D/	]	8B/J	8BB\	]	8d/)	8d\	]	8dd 8b\)	]	8dd/)	8dd\	]
.	.	.	.	.	.	.	.	.	.	.	.	.	.	.	.	16d'\JJ	.	.	.	.	.	.	.	.	.	.	.	.	.	.	.	.	.	.
*	*	*	*	*	*	*	*	*	*	*	*	*	*	*	*	*	*	*	*	*	*	*	*	*v	*v	*	*	*	*	*	*	*	*	*
=18	=18	=18	=18	=18	=18	=18	=18	=18	=18	=18	=18	=18	=18	=18	=18	=18	=18	=18	=18	=18	=18	=18	=18	=18	=18	=18	=18	=18	=18	=18	=18	=18	=18
*	*	*	*	*	*	*	*	*	*	*	*	*	*	*	*	*	*	*	*	*	*	*	*	*	*	*	*	*	*^	*	*	*	*
*	*	*tremolo	*	*	*	*	*	*	*	*	*	*tremolo	*	*tremolo	*	*	*	*	*	*	*	*	*	*	*	*	*	*	*	*	*	*	*	*
(4.AA/	.	8A\L	.	4.A\	pa-	4.A\	pa-	.	4.e/	pa-	.	8A/L	.	8eL 8c#/	.	16e\LL	.	4r	.	2.r	.	(4.e (4.A\	.	(<[4.A 4.AA\	.	4.eTT/	4.c#tt\	.	(<&(4.ee 4.cc#TTt\	4.cc#yytt\	.	(4.eeTT/	(4.eeTT\	.
.	.	.	.	.	.	.	.	.	.	.	.	.	.	.	.	16a\	.	.	.	.	.	.	.	.	.	.	.	.	.	.	.	.	.	.
.	.	8A\	.	.	.	.	.	.	.	.	.	8A/	.	8e 8c#/	.	16cc#\	.	.	.	.	.	.	.	.	.	.	.	.	.	.	.	.	.	.
.	.	.	.	.	.	.	.	.	.	.	.	.	.	.	.	16ee\	.	.	.	.	.	.	.	.	.	.	.	.	.	.	.	.	.	.
.	.	8A\J	.	.	.	.	.	.	.	.	.	8A/J	.	8eJ 8c#/	.	16gg\	.	8r	p	.	.	.	.	.	.	.	.	.	.	.	.	.	.	.
.	.	.	.	.	.	.	.	.	.	.	.	.	.	.	.	16cc#\JJ	.	.	.	.	.	.	.	.	.	.	.	.	.	.	.	.	.	.
*	*	*Xtremolo	*	*	*	*	*	*	*	*	*	*	*	*Xtremolo	*	*	*	*	*	*	*	*	*	*	*	*	*	*	*	*	*	*	*	*
8D/L)	.	8D'\L	.	4D\	-ro!	4d\	-ro!	.	4d/	-ro!	.	8D/L	.	8d'/L	.	16dd'\LL	.	8D'\L	.	.	.	8dL 8D/))	.	8A] 8D\)	.	8d/	8d\	.	8dd/)	8dd\&)	.	8dd/)	8dd\)	.
.	.	.	.	.	.	.	.	.	.	.	.	.	.	.	.	(16dd\	.	.	.	.	.	.	.	.	.	.	.	.	.	.	.	.	.	.
8D'/	.	8D'\	.	.	.	.	.	.	.	.	.	8D/	.	16c#/L	.	16cc#\	.	8D'\	.	.	.	8d 8D/	.	8r	.	8r	8ryy	.	16cc#/LL	16cc#\LL	.	8r	8ryy	.
.	.	.	.	.	.	.	.	.	.	.	.	.	.	16d/	.	16dd\	.	.	.	.	.	.	.	.	.	.	.	.	16dd/	16dd\	.	.	.	.
8D'/J	.	8D'\J	.	8r	.	8r	.	.	8r	.	.	8D/J	.	16e/	.	16ee\	.	8D'\J	.	.	.	8dJ 8D/	.	8r	.	8r	8ryy	.	16ee/	16ee\	.	8r	8ryy	.
.	.	.	.	.	.	.	.	.	.	.	.	.	.	16d/JJ	.	16dd\JJ)	.	.	.	.	.	.	.	.	.	.	.	.	16dd/JJ	16dd\JJ	.	.	.	.
*	*	*	*	*	*	*	*	*	*	*	*	*	*	*	*	*	*	*	*	*	*	*	*	*	*	*	*	*	*v	*v	*	*	*	*
*	*	*	*	*	*	*	*	*	*	*	*	*	*	*	*	*	*	*	*	*	*	*	*	*	*	*	*	*	*	*	*v	*v	*
=19	=19	=19	=19	=19	=19	=19	=19	=19	=19	=19	=19	=19	=19	=19	=19	=19	=19	=19	=19	=19	=19	=19	=19	=19	=19	=19	=19	=19	=19	=19	=19	=19
*tremolo	*	*tremolo	*	*	*	*	*	*	*	*	*	*Xtremolo	*	*	*	*	*	*tremolo	*	*	*	*tremolo	*	*	*	*	*	*	*	*	*	*
*	*	*	*	*	*	*	*	*	*	*	*	*	*	*	*	*	*	*2\right	*	*	*	*	*	*	*	*	*	*	*	*	*	*
!	!	!LO:TX:t=P:problem:t.19-30 zapisane odnośnikiem:Col CB.	!	!	!	!	!	!	!	!	!LO:DY:a:t=mezzo f	!	!	!	!	!	!	!LO:TX:t=P:problem:staccato nad tremolo, tremolo-dots	!	!	!	!	!	!	!	!	!	!	!	!	!LO:TX:a:t=a due.	!
!	!	!	!	!	!	!	!	!	!	!	!	!	!LO:DY:b:t=mf	!	!	!	!	!	!	!	!	!	!	!	!	!	!	!	!	!LO:DY:b:t=mf	!	!LO:DY:b:t=mf
8D/L	mf	8D/Lyy	mfy	8D\	wśród	8B\	wśród	.	8g/	wśród	mf	8B'/L	mf	8g'/L	mf	16r	.	8D'\L	.	2.r	.	8dL 8D/	mf	8GL 8D'\	mf	8bL 8g'\	4ryy	mf	8ggL 8b'\	mf	8gg'\L	mf
.	.	.	.	.	.	.	.	.	.	.	.	.	.	.	.	16dd\LL	mf	.	.	.	.	.	.	.	.	.	.	.	.	.	.	.
8D/	.	8D/yy	.	8D\	da-	8A\	da-	.	8f#/	da-	.	8A'/	.	8f#'/	.	16ddd\	.	8D'\	.	.	.	8d 8D/	.	8A 8D'\	.	8a 8f#'\	.	.	8ff# 8a'\	.	8ff#'\	.
.	.	.	.	.	.	.	.	.	.	.	.	.	.	.	.	16dd\	.	.	.	.	.	.	.	.	.	.	.	.	.	.	.	.
8D/	.	8D/yy	.	8D\	-rów	8G#X\	-rów	.	8e#X/	-rów	.	8G#X'/J	.	8e#X'/J	.	16ddd\	.	8D'\	.	.	.	8dJ 8D/	.	8BJ 8D'\	.	8g#J 8e#X'\	8ryy	.	8ee#XJ 8g#X'\	.	8ee#X'\J	.
*	*	*	*	*	*	*	*	*	*	*	*	*	*	*	*	*	*	*	*	*	*	*Xtremolo	*	*	*	*	*	*	*	*	*	*
.	.	.	.	.	.	.	.	.	.	.	.	.	.	.	.	16dd\JJ	.	.	.	.	.	.	.	.	.	.	.	.	.	.	.	.
!	!	!	!	!	!	!	!	!	!	!	!	!	!	!	!	!	!	!	!	!	!	!	!	!	!	!	!	!	!	!	!LO:TX:t=P:problem:diminuendolike accent	!
8D/	.	8D/yy	.	4D\	szczę-	4A\	szczę-	.	4f#/	szczę-	.	8A/	.	8f#/	.	16ddd\LL	.	8D'\	.	.	.	4d 4D^/	.	(4A 4D\	.	8a/	4f#\	.	(4ff# 4a\	.	(4ff^<#\	.
.	.	.	.	.	.	.	.	.	.	.	.	.	.	.	.	16dd\	.	.	.	.	.	.	.	.	.	.	.	.	.	.	.	.
8D/	.	8D/yy	.	.	.	.	.	.	.	.	.	16c#\LL	.	16c#/LL	.	16cc#\	.	8D'\	.	.	.	.	.	.	.	16cc#/LL	.	.	.	.	.	.
.	.	.	.	.	.	.	.	.	.	.	.	16d\	.	16d/	.	16dd\	.	.	.	.	.	.	.	.	.	16dd/	.	.	.	.	.	.
8D/J	.	8D/Jyy	.	8D\	-śćia	8D/	-śćia	.	8d/	-śćia	.	16A\	.	16A/	.	16ee\	.	8D'\J	.	.	.	8d 8D/	.	8d 8D\)	.	16a/	8r	.	8dd 8f#\)	.	8dd\)	]
.	.	.	.	.	.	.	.	.	.	.	.	16d\JJ	.	16d/JJ	.	[16dd\JJ	.	.	.	.	.	.	.	.	.	16dd/JJ	.	.	.	.	.	.
=20	=20	=20	=20	=20	=20	=20	=20	=20	=20	=20	=20	=20	=20	=20	=20	=20	=20	=20	=20	=20	=20	=20	=20	=20	=20	=20	=20	=20	=20	=20	=20	=20
*	*	*	*	*	*	*	*	*	*	*	*	*	*	*	*	*	*	*	*	*	*	*tremolo	*	*	*	*	*	*	*	*	*	*
8D/L	.	8D/Lyy	.	8D\	da-	8G/	da-	.	8b\	da-	.	8g'\L	.	8b/L	.	16dd\LL]	.	8D\L	.	2.r	.	8dL 8D/	.	8GL 8D'\	.	8gg'</L	8b\L	.	8bbL 8g'\	.	8bb'\L	.
.	.	.	.	.	.	.	.	.	.	.	.	.	.	.	.	16dd\	.	.	.	.	.	.	.	.	.	.	.	.	.	.	.	.
8D/	.	8D/yy	.	8D\	-rów	8F#/	-rów	.	8a\	-rów	.	8f#'\	.	8a/	.	16ddd\	.	8D\	.	.	.	8d 8D/	.	8A 8D'\	.	8ff#'</	8a\	.	8aa 8f#'\	.	8aa'\	.
.	.	.	.	.	.	.	.	.	.	.	.	.	.	.	.	16dd\	.	.	.	.	.	.	.	.	.	.	.	.	.	.	.	.
8D/	.	8D/yy	.	8D\	mi-	8E#X/	mi-	.	8g#X\	mi-	.	8e#X'\J	.	8g#X/J	.	16ddd\	.	8D\	.	.	.	8d 8D/	.	8BJ 8D'\	.	8ee#X'</J	8g#\J	.	8gg#XJ 8e#X'\	.	8gg#X'\J	.
.	.	.	.	.	.	.	.	.	.	.	.	.	.	.	.	16dd\JJ	.	.	.	.	.	.	.	.	.	.	.	.	.	.	.	.
!	!	!	!	!	!	!	!	!	!	!	!	!	!	!	!	!	!	!	!	!	!	!	!	!	!	!	!	!	!	!	!LO:TX:t=P:problem:diminuendolike accent	!
8D/	.	8D/yy	.	4D\	-ło-	8F#\L	-ło-	.	4a\	-ło-	.	8f#\	.	8a'/	.	16ddd\LL	.	8D\	.	.	.	8d 8D/	.	(4A 4D\	.	8ff#/	4a\	.	(4aa 4f#\	.	(4aa^<\	.
.	.	.	.	.	.	.	.	.	.	.	.	.	.	.	.	16dd\	.	.	.	.	.	.	.	.	.	.	.	.	.	.	.	.
8D/	.	8D/yy	.	.	.	8A\J	.	.	.	.	.	16c#\LL	.	16c#/LL	.	16cc#\	.	8D\	.	.	.	8d 8D/	.	.	.	16cc#/LL	.	.	.	.	.	.
.	.	.	.	.	.	.	.	.	.	.	.	16d\	.	16d/	.	16dd\	.	.	.	.	.	.	.	.	.	16dd/	.	.	.	.	.	.
!	!	!	!	!	!	!	!	!	!LO:TX:t=P:problem:8b poprawione na 8dd	!	!	!	!	!LO:TX:t=P:problem:16e poprawione na 16A	!	!	!	!	!	!	!	!	!	!	!	!	!	!	!	!	!	!
8D/J	.	8D/Jyy	.	8D\	-śći	8d\	-śći	.	8dd 8d\	-śći	.	16A\	.	16A/	.	16ee\	.	8D\J	.	.	.	8dJ 8D/	.	8d 8D\)	.	16a/	8r	.	8dd\)	.	8dd\)	]
.	.	.	.	.	.	.	.	.	.	.	.	16d\JJ	.	16d/JJ	.	16dd\JJ	.	.	.	.	.	.	.	.	.	16dd/JJ	.	.	.	.	.	.
*	*	*	*	*	*	*	*	*	*	*	*	*	*	*	*	*	*	*	*	*	*	*	*	*	*	*v	*v	*	*	*	*	*
=21	=21	=21	=21	=21	=21	=21	=21	=21	=21	=21	=21	=21	=21	=21	=21	=21	=21	=21	=21	=21	=21	=21	=21	=21	=21	=21	=21	=21	=21	=21	=21
*	*	*	*	*	*	*	*	*	*	*	*	*	*	*	*	*	*	*	*	*	*	*^	*	*^	*	*	*	*	*	*	*
*	*	*	*	*	*	*	*	*	*	*	*	*tremolo	*	*	*	*	*	*	*	*	*	*	*	*	*tremolo	*	*	*tremolo	*	*tremolo	*	*tremolo	*
!	!	!	!	!	!	!LO:TX:t=P:problem:8e poprawione na 8d	!	!	!	!	!	!	!	!	!	!	!	!	!	!	!	!	!	!	!	!	!	!	!	!	!	!	!
8GG#X/L	.	8GG#X/Lyy	.	8G#X\	żyj	8d\	żyj	.	8b 8e\	żyj	.	8eL 8d\	.	16B/LL	.	16b\LL	.	8D\L	.	2.r	.	8e/L	8d\L	.	8BL 8G#X\	4ryy	.	8ddL 8b\	.	8eeL 8dd\	.	8bb\L	.
.	.	.	.	.	.	.	.	.	.	.	.	.	.	16e/	.	16ee\	.	.	.	.	.	.	.	.	.	.	.	.	.	.	.	.	.
8GG#/	.	8GG#/yy	.	8G#\	dłu-	8d\	dłu-	.	8b 8e\	dłu-	.	8e 8d\	.	16d/	.	16dd\	.	8D\	.	.	.	8e/	8d\	.	8B 8G#\	.	.	8dd 8b\	.	8ee 8dd\	.	8bb\	.
.	.	.	.	.	.	.	.	.	.	.	.	.	.	16e/	.	16ee\	.	.	.	.	.	.	.	.	.	.	.	.	.	.	.	.	.
*	*	*	*	*	*	*	*	*	*	*	*	*	*	*	*	*	*	*	*	*	*	*	*	*	*	*	*	*	*	*	*	*	*
!	!	!	!	!	!	!LO:TX:t=P:problem:8B poprawione na 8d	!	!	!	!	!	!	!	!	!	!	!	!	!	!	!	!	!	!	!	!	!	!	!	!	!	!	!
8GG#/J	.	8GG#/Jyy	.	8G#\	-go	8d\	-go	.	8b 8e\	-go	.	8eJ 8d\	.	16b/	.	16b\	.	8D\	.	.	.	8e/J	8d\J	.	8BJ 8G#\	8ryy	.	8ddJ 8b\	.	8eeJ 8dd\	.	8bb\J	.
*	*	*	*	*	*	*	*	*	*	*	*	*	*	*	*	*	*	*	*	*	*	*	*	*	*	*	*	*	*	*	*	*Xtremolo	*
.	.	.	.	.	.	.	.	.	.	.	.	.	.	16e/JJ	.	16ee\JJ	.	.	.	.	.	.	.	.	.	.	.	.	.	.	.	.	.
!LO:TX:b:t=[[4]] :color=grey	!	!	!	!	!	!LO:TX:t=P:problem:4A poprawione na 4d	!	!	!LO:N:n=2:vis=4.	!	!	!	!	!	!	!	!	!	!	!	!	!	!	!	!	!	!	!	!	!	!	!	!
8AA/L	.	8AA/Lyy	.	4A\	mło-	4d\	mło-	.	4a 4f#\	mło-	.	8f#L 8d\	.	16a\LL	.	16a\LL	.	8D\	.	.	.	8f#/L	8d\L	.	8A/L	8A\L	.	8ff#L 8a\	.	8ff#L 8dd\	.	(16aa\LL	.
.	.	.	.	.	.	.	.	.	.	.	.	.	.	16aa\	.	16aa\	.	.	.	.	.	.	.	.	.	.	.	.	.	.	.	16aaa\	.
8AA/	.	8AA/yy	.	.	.	.	.	.	.	.	.	8f# 8d\	.	16gg\	.	16gg\	.	8D\	.	.	.	8f#/	8d\	.	8A/	8A\	.	8ff# 8a\	.	8ff# 8dd\	.	16ggg'\)	.
.	.	.	.	.	.	.	.	.	.	.	.	.	.	16ff#\	.	16ff#\	.	.	.	.	.	.	.	.	.	.	.	.	.	.	.	16fff#'\	.
8AA/J	.	8AA/Jyy	.	8A\	-da	8d\	-da	.	8a 8f#\	-da	.	8f#J 8d\	.	16ee\	.	16ee\	.	8D\J	.	.	.	8f#/J	8d\J	.	8A/J	8A\J	.	8ff#J 8a\	.	8ff#J 8dd\	.	16eee'\	.
.	.	.	.	.	.	.	.	.	.	.	.	.	.	16dd\JJ	.	16dd\JJ	.	.	.	.	.	.	.	.	.	.	.	.	.	.	.	16ddd'\JJ	.
*	*	*	*	*	*	*	*	*	*	*	*	*	*	*	*	*	*	*	*	*	*	*v	*v	*	*	*	*	*	*	*	*	*	*
*	*	*	*	*	*	*	*	*	*	*	*	*	*	*	*	*	*	*	*	*	*	*	*	*v	*v	*	*	*	*	*	*	*
=22	=22	=22	=22	=22	=22	=22	=22	=22	=22	=22	=22	=22	=22	=22	=22	=22	=22	=22	=22	=22	=22	=22	=22	=22	=22	=22	=22	=22	=22	=22	=22
*	*	*	*	*	*	*	*	*	*	*	*	*	*	*	*	*	*	*	*	*^	*	*	*	*	*	*	*	*	*	*	*
*	*	*	*	*	*	*	*	*	*	*	*	*	*	*	*	*	*	*Xtremolo	*	*	*	*	*Xtremolo	*	*Xtremolo	*	*	*Xtremolo	*	*Xtremolo	*	*
8AA/L	.	8AA/Lyy	.	4.A 4.AA\	pa-	4.c#\	pa-	.	4.a 4.e\	pa-	.	8eL 8c#\	.	16cc#/LL	.	16cc#/LL	.	4.AATT/	.	4r	4ryy	.	(4.e 4.A\	.	(4.c# 4.AA\	.	(4.ee (4.g\	.	(4.ee (4.cc#\	.	(16ccc#\LL	.
.	.	.	.	.	.	.	.	.	.	.	.	.	.	16b/	.	16b/	.	.	.	.	.	.	.	.	.	.	.	.	.	.	16bb\)	.
8AA/	.	8AA/yy	.	.	.	.	.	.	.	.	.	8e 8c#\	.	16a/	.	16a/	.	.	.	.	.	.	.	.	.	.	.	.	.	.	16aa'\	.
.	.	.	.	.	.	.	.	.	.	.	.	.	.	16g/	.	16g/	.	.	.	.	.	.	.	.	.	.	.	.	.	.	16gg'\	.
8AA/J	.	8AA/Jyy	.	.	.	.	.	.	.	.	.	8eJ 8c#\	.	16f#/	.	16f#/	.	.	.	8r	8ryy	.	.	.	.	.	.	.	.	.	16ff#'\	.
.	.	.	.	.	.	.	.	.	.	.	.	.	.	16e/JJ	.	16e/JJ	.	.	.	.	.	.	.	.	.	.	.	.	.	.	16ee'\JJ	.
*	*	*	*	*	*	*	*	*	*	*	*	*Xtremolo	*	*	*	*	*	*	*	*	*	*	*	*	*	*	*	*	*	*	*	*
!LO:TX:b:t=4:color=grey	!	!	!	!	!	!	!	!	!	!	!	!LO:TX:t=P:problem:mixed beam	!	!	!	!LO:TX:t=P:problem:mixed beam	!	!	!	!	!	!	!	!	!	!	!	!	!	!	!	!
8D\L	.	8D\Lyy	.	4D\	-ro!	4d\	-ro!	.	4f# 4d/	-ro!	.	8d\L	.	8d/	.	16d/LL	.	8D\L	.	8d/L	8d\L	.	8d 8F#\)	.	8d 8D\)	.	8dd 8f#\))	.	8dd\L))	.	8dd'\	.
.	.	.	.	.	.	.	.	.	.	.	.	.	.	.	.	16dd\	.	.	.	.	.	.	.	.	.	.	.	.	.	.	.	.
8D\	.	8D\yy	.	.	.	.	.	.	.	.	.	8D/	.	16c#/LL	.	16cc#\	.	8D\	.	8d/	8d\	.	8r	.	8r	.	8r	.	16cc#\L	.	8r	.
.	.	.	.	.	.	.	.	.	.	.	.	.	.	16d/	.	16dd\	.	.	.	.	.	.	.	.	.	.	.	.	16dd\	.	.	.
!	!	!	!	!	!	!	!	!	!	!	!	!	!	!	!	!	!	!	!	!	!	!LO:DY:b:t=piu f.	!	!	!	!	!	!	!	!	!	!
8D\J	.	8D\Jyy	.	8r	.	8r	.	.	8r	.	.	8D/J	.	16e/	.	16ee\	.	8D\J	.	8d/J	8d\J	f	8r	.	8r	.	8r	.	16ee\	.	8r	.
.	.	.	.	.	.	.	.	.	.	.	.	.	.	16d/JJ	.	16dd\JJ	.	.	.	.	.	.	.	.	.	.	.	.	16dd\JJ	.	.	.
=23	=23	=23	=23	=23	=23	=23	=23	=23	=23	=23	=23	=23	=23	=23	=23	=23	=23	=23	=23	=23	=23	=23	=23	=23	=23	=23	=23	=23	=23	=23	=23	=23
*	*	*	*	*	*	*	*	*	*	*	*	*	*	*	*	*	*	*	*	*	*	*	*	*	*	*	*^	*	*	*	*	*
*	*	*	*	*	*	*	*	*	*	*	*	*	*	*	*	*	*	*tremolo	*	*tremolo	*tremolo	*	*tremolo	*	*	*	*	*	*	*	*	*	*
!	!LO:DY:t=piu f.	!	!	!	!	!	!	!	!	!	!LO:DY:a:t=piu forte.	!	!LO:DY:a:t=piu f.	!	!LO:DY:a:t=piu f.	!LO:TX:t=P:problem:mixed beam	!LO:DY:a:t=piu f.	!	!	!	!	!	! 	!LO:DY:rj:t=piu f.	! 	!LO:DY:t=piu f.	! 	!	!LO:DY:t=piu f.	!	!LO:DY:t=piu f.	!	!LO:DY:t=piu f.
8D\L	f	8D\Lyy	.	8D\	wśród	8B\	wśród	.	8g\	wśród	f	8B/L	f	8g'/L	f	16d/LL	f	8D\L	.	8d/L	8d\L	.	8dL 8D/	f	8GL 8D'\	f	8bL 8g'\	4ryy	f	8ggL 8b'\	f	8gg'\L	f
.	.	.	.	.	.	.	.	.	.	.	.	.	.	.	.	16dd\	.	.	.	.	.	.	.	.	.	.	.	.	.	.	.	.	.
8D\	.	8D\yy	.	8D\	da-	8A\	da-	.	8f#\	da-	.	8A/	.	8f#'/	.	16ddd\	.	8D\	.	8d/	8d\	.	8d 8D/	.	8A 8D'\	.	8a 8f#'\	.	.	8ff# 8a'\	.	8ff#'\	.
.	.	.	.	.	.	.	.	.	.	.	.	.	.	.	.	16dd\	.	.	.	.	.	.	.	.	.	.	.	.	.	.	.	.	.
8D\	.	8D\yy	.	8D\	-rów	8G#X\	-rów	.	8e#X\	-rów	.	8G#X/J	.	8e#X'/J	.	16ddd\	.	8D\	.	8d/J	8d\J	.	8dJ 8D/	.	8BJ 8D'\	.	8g#J 8e#X'\	8ryy	.	8ee#XJ 8g#X'\	.	8ee#X'\J	.
.	.	.	.	.	.	.	.	.	.	.	.	.	.	.	.	16dd\JJ	.	.	.	.	.	.	.	.	.	.	.	.	.	.	.	.	.
!	!	!	!	!	!	!	!	!	!	!	!	!	!	!	!	!	!	!	!	!	!	!	!	!	!	!	!	!	!	!LO:TX:t=P:problem:diminuendolike accent	!	!LO:TX:t=P:problem:diminuendolike accent	!
8D\	.	8D\yy	.	4D\	szczę-	4A\	szczę-	.	4f#\	szczę-	.	8A/	.	16f#/LL	.	16ddd\LL	.	8D\	.	4d^/	4d\	.	4d 4D^/	.	(4A 4D\	.	8a/	4f#\	.	(4ff#^< 4a\	.	(4ff#^<\	.
*	*	*	*	*	*	*	*	*	*	*	*	*	*	*	*	*	*	*	*	*Xtremolo	*Xtremolo	*	*	*	*	*	*	*	*	*	*	*	*
.	.	.	.	.	.	.	.	.	.	.	.	.	.	16d/	.	16dd\	.	.	.	.	.	.	.	.	.	.	.	.	.	.	.	.	.
8D\	.	8D\yy	.	.	.	.	.	.	.	.	.	16c#\LL	.	16c#/	.	16cc#\	.	8D\	.	.	.	.	.	.	.	.	16cc#/LL	.	.	.	.	.	.
.	.	.	.	.	.	.	.	.	.	.	.	16d\	.	16d/	.	16dd\	.	.	.	.	.	.	.	.	.	.	16dd/	.	.	.	.	.	.
8D\J	.	8D\Jyy	.	8D\	-śćia	8D/	-śćia	.	8d\	-śćia	.	16A\	.	16A/	.	16a\	.	8D\J	.	8d/	8d\	.	8d 8D/	.	8d 8D\)	.	16a/	8r	.	8dd\)	]	8dd\)	]
.	.	.	.	.	.	.	.	.	.	.	.	16d\JJ	.	16d/JJ	.	16dd\JJ	.	.	.	.	.	.	.	.	.	.	16dd/JJ	.	.	.	.	.	.
!!pagebreak:original
=24	=24	=24	=24	=24	=24	=24	=24	=24	=24	=24	=24	=24	=24	=24	=24	=24	=24	=24	=24	=24	=24	=24	=24	=24	=24	=24	=24	=24	=24	=24	=24	=24	=24
*2\right	*	*2\right	*	*	*	*	*	*	*	*	*	*	*	*	*	*	*	*	*	*tremolo	*tremolo	*	*	*	*	*	*	*	*	*	*	*	*
!	!	!	!	!	!	!	!	!	!	!	!	!	!	!	!	!LO:TX:a:t=P:problem: opis na marginesie: V. 1.mo	!	!	!	!	!	!	!	!	!	!	!	!	!	!	!	!	!
!	!	!LO:TX:t=Cello.	!	!	!	!	!	!	!	!	!	!	!	!	!	!LO:TX:t=P:problem:mixed beam	!	!	!	!	!	!	!	!	!	!	!	!	!	!	!	!	!
8D\L	.	8D\Lyy	.	8D\	da-	8G/	da-	.	8b\	da-	.	8g\L	.	8bL 8d/	.	16d/LL	.	8D\L	.	8d/L	8d\L	.	8dL 8D/	.	8GL 8D\	.	8ggL 8b\	4ryy	.	8bbL 8g\	.	8bb'\L	.
.	.	.	.	.	.	.	.	.	.	.	.	.	.	.	.	16dd\	.	.	.	.	.	.	.	.	.	.	.	.	.	.	.	.	.
8D\	.	8D\yy	.	8D\	-rów	8F#/	-rów	.	8a\	-rów	.	8f#\	.	8a 8d/	.	16ddd\	.	8D\	.	8d/	8d\	.	8d 8D/	.	8A 8D\	.	8ff# 8a\	.	.	8aa 8f#\	.	8aa'\	.
.	.	.	.	.	.	.	.	.	.	.	.	.	.	.	.	16dd\	.	.	.	.	.	.	.	.	.	.	.	.	.	.	.	.	.
8D\	.	8D\yy	.	8D\	mi-	8E#X/	mi-	.	8g#X\	mi-	.	8e#X\J	.	8g#X/J	.	16ddd\	.	8D\	.	8d/J	8d\J	.	8d 8D/	.	8BJ 8D\	.	8ee#XJ 8g#\	8ryy	.	8gg#XJ 8e#X\	.	8gg#X'\J	.
.	.	.	.	.	.	.	.	.	.	.	.	.	.	.	.	16dd\JJ	.	.	.	.	.	.	.	.	.	.	.	.	.	.	.	.	.
*	*	*	*	*	*	*	*	*	*	*	*	*	*	*	*	*	*	*	*	*Xtremolo	*Xtremolo	*	*	*	*tremolo	*	*	*	*	*	*	*	*
8D\	.	8D\yy	.	8D\L	-ło-	8F#/L	-ło-	.	4a\	-ło-	.	8f#\	.	16a/LL	.	16ddd\LL	.	8D\	.	4d/	4d\	.	8d 8D/	.	8AL 8D\	.	8ff#/	4a\	.	4aa 4f#\	.	4aa\	.
.	.	.	.	.	.	.	.	.	.	.	.	.	.	16d/	.	16dd\	.	.	.	.	.	.	.	.	.	.	.	.	.	.	.	.	.
8D\	.	8D\yy	.	8F#\J	.	8A/J	.	.	.	.	.	16c#\LL	.	16c#/	.	16cc#\	.	8D\	.	.	.	.	8d 8D/	.	8A 8D\	.	16cc#/LL	.	.	.	.	.	.
.	.	.	.	.	.	.	.	.	.	.	.	16d\	.	16d/	.	16dd\	.	.	.	.	.	.	.	.	.	.	16dd/	.	.	.	.	.	.
!	!	!	!	!	!	!	!	!	!	!	!	!LO:SIC:v:o=16e#\	!	!	!	!	!	!	!	!	!	!	!	!	!	!	!	!	!	!	!	!	!
8D\J	.	8D\Jyy	.	8A\	-śći	8d\	-śći	.	8dd\	-śći	.	16en\	.	16e/	.	16ee\	.	8D\J	.	8r	8ryy	.	8dJ 8D/	.	8AJ 8D\	.	16a/	8r	.	8r	.	8r	.
.	.	.	.	.	.	.	.	.	.	.	.	16d\JJ	.	16d/JJ	.	16dd\JJ	.	.	.	.	.	.	.	.	.	.	16dd/JJ	.	.	.	.	.	.
*	*	*	*	*	*	*	*	*	*	*	*	*	*	*	*	*	*	*	*	*v	*v	*	*	*	*	*	*v	*v	*	*	*	*	*
=25	=25	=25	=25	=25	=25	=25	=25	=25	=25	=25	=25	=25	=25	=25	=25	=25	=25	=25	=25	=25	=25	=25	=25	=25	=25	=25	=25	=25	=25	=25	=25
*	*	*	*	*	*	*	*	*	*	*	*	*	*	*	*	*	*	*	*	*	*	*^	*	*^	*	*	*	*^	*	*	*
*	*	*	*	*	*	*	*	*	*	*	*	*tremolo	*	*	*	*	*	*	*	*	*	*	*	*	*	*	*	*	*	*	*	*	*tremolo	*
8GG#X/L	.	8GG#X/Lyy	.	8G#X\	żyj	8e\	żyj	.	8ee\	żyj	.	8G#X/L	.	16b\LL	.	16b\LL	.	8D\L	.	2.r	.	8e/L	8d\L	.	8BL 8G#X\	4ryy	.	8ddL 8b\	.	8ee/L	8dd\L	.	8bb\L	.
.	.	.	.	.	.	.	.	.	.	.	.	.	.	16ee\	.	16ee\	.	.	.	.	.	.	.	.	.	.	.	.	.	.	.	.	.	.
8GG#/	.	8GG#/yy	.	8G#\	dłu-	8d\	dłu-	.	8dd\	dłu-	.	8G#/	.	16dd\	.	16dd\	.	8D\	.	.	.	8e/	8d\	.	8B 8G#\	.	.	8dd 8b\	.	8ee/	8dd\	.	8bb\	.
.	.	.	.	.	.	.	.	.	.	.	.	.	.	16ee\	.	16ee\	.	.	.	.	.	.	.	.	.	.	.	.	.	.	.	.	.	.
8GG#/J	.	8GG#/Jyy	.	8G#\	-go	8B\	-go	.	8b\	-go	.	8G#/J	.	16b\	.	16b\	.	8D\	.	.	.	8e/J	8d\J	.	8BJ 8G#\	8ryy	.	8ddJ 8b\	.	8ee/J	8dd\J	.	8bb\J	.
.	.	.	.	.	.	.	.	.	.	.	.	.	.	16ee\JJ	.	16ee\JJ	.	.	.	.	.	.	.	.	.	.	.	.	.	.	.	.	.	.
*	*	*	*	*	*	*	*	*	*	*	*	*	*	*	*	*	*	*	*	*	*	*	*	*	*	*tremolo	*	*	*	*	*	*	*Xtremolo	*
8AA/L	.	8AA/Lyy	.	4A\	mło-	4A\	mło-	.	4a\	mło-	.	8A/L	.	16a\LL	.	16a\LL	.	8D\	.	.	.	8f#/L	8d\L	.	8A/L	8A\L	.	8ff#L 8a\	.	8ff#/L	8dd\L	.	16aa\LL	.
.	.	.	.	.	.	.	.	.	.	.	.	.	.	16aa\	.	16aa\	.	.	.	.	.	.	.	.	.	.	.	.	.	.	.	.	16aaa\	.
8AA/	.	8AA/yy	.	.	.	.	.	.	.	.	.	8A/	.	16gg\	.	16gg\	.	8D\	.	.	.	8f#/	8d\	.	8A/	8A\	.	8ff# 8a\	.	8ff#/	8dd\	.	16ggg\	.
.	.	.	.	.	.	.	.	.	.	.	.	.	.	16ff#\	.	16ff#\	.	.	.	.	.	.	.	.	.	.	.	.	.	.	.	.	16fff#\	.
8AA/J	.	8AA/Jyy	.	8A\	-da	8A\	-da	.	8a\	-da	.	8A/J	.	16ee\	.	16ee\	.	8D\J	.	.	.	8f#/J	8d\J	.	8A/J	8A\J	.	8ff#J 8a\	.	8ff#/J	8dd\J	.	16eee\	.
.	.	.	.	.	.	.	.	.	.	.	.	.	.	16dd\JJ	.	16dd\JJ	.	.	.	.	.	.	.	.	.	.	.	.	.	.	.	.	16ddd\JJ	.
*	*	*	*	*	*	*	*	*	*	*	*	*	*	*	*	*	*	*	*	*	*	*	*	*	*Xtremolo	*	*	*	*	*	*	*	*	*
*	*	*	*	*	*	*	*	*	*	*	*	*	*	*	*	*	*	*	*	*	*	*v	*v	*	*	*	*	*	*	*	*	*	*	*
*	*	*	*	*	*	*	*	*	*	*	*	*	*	*	*	*	*	*	*	*	*	*	*	*v	*v	*	*	*	*	*	*	*	*
!!LO:TX:a:B:t=B
=26	=26	=26	=26	=26	=26	=26	=26	=26	=26	=26	=26	=26	=26	=26	=26	=26	=26	=26	=26	=26	=26	=26	=26	=26	=26	=26	=26	=26	=26	=26	=26	=26
*	*	*	*	*	*	*	*	*	*	*	*	*	*	*	*	*	*	*	*	*^	*	*	*	*	*	*	*	*	*	*	*	*
*	*	*	*	*	*	*	*	*	*	*	*	*	*	*	*	*	*	*Xtremolo	*	*	*	*	*Xtremolo	*	*	*	*	*Xtremolo	*	*Xtremolo	*	*	*
8AA/L	.	8AA/Lyy	.	4.A\	pa-	4.c#\	pa-	.	4.a\	pa-	.	8eL 8A/	.	16cc#/LL	.	16cc#/LL	.	4.AATT/	.	4r	4ryy	.	(4.e 4.A\	.	(4.c# (4.AA\	.	(4.ee (4.g\	.	(4.ee/	(4.cc#\	.	16ccc#\LL	.
.	.	.	.	.	.	.	.	.	.	.	.	.	.	16b/	.	16b/	.	.	.	.	.	.	.	.	.	.	.	.	.	.	.	16bb\	.
8AA/	.	8AA/yy	.	.	.	.	.	.	.	.	.	8e 8A/	.	16a/	.	16a/	.	.	.	.	.	.	.	.	.	.	.	.	.	.	.	16aa\	.
.	.	.	.	.	.	.	.	.	.	.	.	.	.	16g/	.	16g/	.	.	.	.	.	.	.	.	.	.	.	.	.	.	.	16gg\	.
8AA/J	.	8AA/Jyy	.	.	.	.	.	.	.	.	.	8eJ 8A/	.	16f#/	.	16f#/	.	.	.	8r	8ryy	.	.	.	.	.	.	.	.	.	.	16ff#\	.
.	.	.	.	.	.	.	.	.	.	.	.	.	.	16e/JJ	.	16e/JJ	.	.	.	.	.	.	.	.	.	.	.	.	.	.	.	16ee\JJ	.
*	*	*	*	*	*	*	*	*	*	*	*	*Xtremolo	*	*	*	*	*	*	*	*	*	*	*	*	*	*	*	*	*	*	*	*	*
8D\	.	8D\yy	.	8D\	-ro	8d\	-ro	.	8d/	-ro	.	8d\	.	8d/	.	8d/	.	8D/	.	4r	4ryy	.	8d 8F#\)	.	8d 8D\))	.	8dd 8f#\))	.	8dd/)	8dd\)	.	8dd\	.
8r	.	8ryy	.	8r	.	8r	.	.	8r	.	.	8r	.	8r	.	8r	.	8r	.	.	.	.	8r	.	8r	.	8r	.	8r	8ryy	.	8r	.
!LO:TX:b:t=5:color=grey	!	!	!	!	!	!	!	!	!	!	!	!	!	!	!	!	!	!	!	!	!	!	!	!	!	!	!	!	!	!	!	!	!
8A\	f	8A\yy	fy	8A\	żyj	8c#\	żyj	.	8a\	żyj	.	8e 8c#\	f	8cc# 8e/	f	8ee 8a\	f	8AA/	f	8a/	8a\	f	8e 8A\	f	8c# 8A\	f	8ee 8cc#\	f	8ee 8cc#\	8ryy	f	8ccc# 8aa\	f
*	*	*	*	*	*	*	*	*	*	*	*	*	*	*	*	*	*	*	*	*	*	*	*	*	*	*	*	*	*v	*v	*	*	*
=27	=27	=27	=27	=27	=27	=27	=27	=27	=27	=27	=27	=27	=27	=27	=27	=27	=27	=27	=27	=27	=27	=27	=27	=27	=27	=27	=27	=27	=27	=27	=27	=27
8A\	.	8A\yy	.	4A\	dłu-	4c#\	dłu-	.	4cc# 4a\	dłu-	.	8e 8c#\	.	8cc# 8e/	.	8ee 8a\	.	4AA/	.	8a/	8a\	.	8e 8A\	.	8c# 8A\	.	8ee 8cc#\	.	8ee 8cc#\	.	8ccc# 8aa\	.
8r	.	8ryy	.	.	.	.	.	.	.	.	.	8r	.	8r	.	8r	.	.	.	8r	8ryy	.	8r	.	8r	.	8r	.	8r	.	8r	.
8F#\	.	8F#\yy	.	8F#\	-go	8c#\	-go	.	8cc# 8a\	-go	.	8f# 8c#\	.	8cc# 8f#/	.	8ff# 8a\	.	8AA/	.	8a/	8a\	.	8f# 8A\	.	8c# 8F#\	.	8ff# 8cc#\	.	8ff# 8cc#\	.	8ccc# 8aa\	.
!	!	!	!	!	!	!	!	!	!LO:TX:t=P:problem:usunięte ff#	!	!	!	!	!	!	!	!	!	!	!	!	!	!	!	!	!	!	!	!	!	!	!
8F#\	.	8F#\yy	.	4F#\	mło-	4c#\	mło-	.	4cc# 4a\	mło-	.	8f# 8c#\	.	8cc# 8f#/	.	8ff# 8a\	.	4AA/	.	8a/	8a\	.	8f# 8A\	.	8c# 8F#\	.	8ff# 8cc#\	.	8ff# 8cc#\	.	8ccc# 8aa\	.
8r	.	8ryy	.	.	.	.	.	.	.	.	.	8r	.	8r	.	8r	.	.	.	8r	8ryy	.	8r	.	8r	.	8r	.	8r	.	8r	.
!LO:TX:b:t=[[5]] :color=grey	!	!	!	!	!	!	!	!	!LO:TX:t=P:problem:usunięte ff#	!	!	!	!	!	!	!	!	!	!	!	!	!	!	!	!	!	!	!	!	!	!	!
8A\	.	8A\yy	.	8A\	-da	8c#\	-da	.	8cc# 8a\	-da	.	8e 8c#\	.	8cc# 8e/	.	8aa 8a\	.	8AA/	.	8a/	8a\	.	8e 8A\	.	8c# 8A\	.	8ee 8cc#\	.	8aa 8cc#\	.	8ccc# 8aa\	.
=28	=28	=28	=28	=28	=28	=28	=28	=28	=28	=28	=28	=28	=28	=28	=28	=28	=28	=28	=28	=28	=28	=28	=28	=28	=28	=28	=28	=28	=28	=28	=28	=28
*	*	*	*	*	*	*	*	*	*	*	*	*	*	*	*	*	*	*	*	*	*	*	*	*	*	*	*	*	*	*	*^	*
*tremolo	*	*	*	*	*	*	*	*	*	*	*	*tremolo	*	*	*	*	*	*	*	*tremolo	*tremolo	*	*tremolo	*	*tremolo	*	*tremolo	*	*	*	*	*	*
8A\L	.	8A\Lyy	.	4.A\	pa-	4.c#\	pa-	.	4.ee 4.a\	pa-	.	8eL 8c#\	.	8cc# 8e/	.	8aa 8a\	.	4.AATT/	.	8a/L	8a\L	.	8eL 8A\	.	8c#L 8A\	.	8eeL 8cc#\	.	8aaL 8cc#\	.	8ccc#/	8aa\L	.
8A\	.	8A\yy	.	.	.	.	.	.	.	.	.	8e 8c#\	.	16g#X/LL	.	16gg#X\LL	.	.	.	8a/	8a\	.	8e 8A\	.	8c# 8A\	.	8ee 8cc#\	.	8ee 8cc#\	.	8ccc#/L	16gg#X\L	.
.	.	.	.	.	.	.	.	.	.	.	.	.	.	16a/	.	16aa\	.	.	.	.	.	.	.	.	.	.	.	.	.	.	.	16aa\	.
8A\J	.	8A\Jyy	.	.	.	.	.	.	.	.	.	8eJ 8c#\	.	16b/	.	16bb\	.	.	.	8a/J	8a\J	.	8eJ 8A\	.	8c#J 8A\	.	8eeJ 8cc#\	.	8eeJ 8cc#\	.	8ccc#/J	16bb\	.
.	.	.	.	.	.	.	.	.	.	.	.	.	.	16a/JJ	.	16aa\JJ	.	.	.	.	.	.	.	.	.	.	.	.	.	.	.	16aa\JJ	.
*Xtremolo	*	*Xtremolo	*	*	*	*	*	*	*	*	*	*Xtremolo	*	*	*	*	*	*	*	*Xtremolo	*Xtremolo	*	*Xtremolo	*	*Xtremolo	*	*Xtremolo	*	*	*	*	*	*
8d\	.	8d\yy	.	8D\	-ro!	8d\	-ro!	.	8dd 8f#\	-ro!	.	8d\	.	8dd 8d/	.	8ff#\	.	8D\	.	8a 8d/	4ryy	.	8f# 8A\	.	8d 8D\	.	8ff# 8dd\	.	8ff# 8dd\	.	8ddd/	8ff#\	.
8r	.	8ryy	.	8r	.	8r	.	.	8r	.	.	8r	.	8r	.	8r	.	8r	.	8r	.	.	8r	.	8r	.	8r	.	8r	.	8r	8ryy	.
8A\	ff	8A\yy	ffy	8A\	żyj	8c#\	żyj	.	8cc# 8a\	żyj	.	8e 8c#\	ff	8cc# 8e/	ff	8ee 8a\	ff	8AA/	ff	8ee 8a\	8ryy	ff	8a 8A\	ff	8c# 8A\	ff	8ee 8cc#\	ff	8ee 8cc#\	ff	8ccc# 8aa\	8ryy	ff
*	*	*	*	*	*	*	*	*	*	*	*	*	*	*	*	*	*	*	*	*v	*v	*	*	*	*	*	*	*	*	*	*v	*v	*
=29	=29	=29	=29	=29	=29	=29	=29	=29	=29	=29	=29	=29	=29	=29	=29	=29	=29	=29	=29	=29	=29	=29	=29	=29	=29	=29	=29	=29	=29	=29	=29
8A\	.	8A\yy	.	4A\	dłu-	4c#\	dłu-	.	4cc# 4a\	dłu-	.	8e 8c#\	.	8cc# 8e/	.	8ee 8a\	.	4AA/	.	8ee 8a\	.	8a 8A\	.	8c# 8A\	.	8ee 8cc#\	.	8ee 8cc#\	.	8ccc# 8aa\	.
8r	.	8ryy	.	.	.	.	.	.	.	.	.	8r	.	8r	.	8r	.	.	.	8r	.	8r	.	8r	.	8r	.	8r	.	8r	.
8F#\	.	8F#\yy	.	8F#\	-go	8c#\	-go	.	8cc# 8a\	-go	.	8f# 8c#\	.	8cc# 8f#/	.	8ff# 8a\	.	8AA/	.	8ff# 8a\	.	8a 8A\	.	8c# 8F#\	.	8ff# 8cc#\	.	8ff# 8cc#\	.	8ccc# 8aa\	.
8F#\	.	8F#\yy	.	4F#\	mło-	4c#\	mło-	.	4ff# 4a\	mło-	.	8f# 8c#\	.	8cc# 8f#/	.	8ff# 8a\	.	4AA/	.	8ff# 8a\	.	8a 8A\	.	8c# 8F#\	.	8ff# 8cc#\	.	8ff# 8cc#\	.	8ccc# 8aa\	.
8r	.	8ryy	.	.	.	.	.	.	.	.	.	8r	.	8r	.	8r	.	.	.	8r	.	8r	.	8r	.	8r	.	8r	.	8r	.
8A\	.	8A\yy	.	8A\	-da	8c#\	-da	.	8ff# 8a\	-da	.	8e 8c#\	.	8cc# 8e/	.	8aa 8a\	.	8AA/	.	8ee 8a\	.	8a 8A\	.	8c# 8A\	.	8cc# 8e\	.	8aa 8cc#\	.	8ccc# 8aa\	.
=30	=30	=30	=30	=30	=30	=30	=30	=30	=30	=30	=30	=30	=30	=30	=30	=30	=30	=30	=30	=30	=30	=30	=30	=30	=30	=30	=30	=30	=30	=30	=30
*	*	*	*	*	*	*	*	*	*	*	*	*	*	*	*	*	*	*	*	*	*	*	*	*	*	*^	*	*^	*	*	*
*tremolo	*	*tremolo	*	*	*	*	*	*	*	*	*	*tremolo	*	*tremolo	*	*tremolo	*	*tremolo	*	*tremolo	*	*tremolo	*	*tremolo	*	*	*	*	*2\right	*	*	*2\right	*
*	*	*	*	*2\right	*	*2\right	*	*	*2\right	*	*	*2\right	*	*	*	*	*	*	*	*2\right	*	*	*	*	*	*	*	*	*	*	*	*	*
8AA/L	.	8AA/Lyy	.	2.A\	pa-	2.c#\	pa-	.	2.ee 2.g\	pa-	.	8eL 8c#\	.	16cc#LL 16e/	.	16aaLL 16a\	.	16AA/LL	.	8eeL 8a\	.	8aL 8A\	.	8c#L 8A\	.	2.cc#/	[4.a\	.	[<4.aa/	2.cc#\	.	2.eee 2.ccc#\	.
.	.	.	.	.	.	.	.	.	.	.	.	.	.	16cc# 16e/	.	16aa 16a\	.	16AA/	.	.	.	.	.	.	.	.	.	.	.	.	.	.	.
8AA/	.	8AA/yy	.	.	.	.	.	.	.	.	.	8e 8c#\	.	16cc# 16e/	.	16aa 16a\	.	16AA/	.	8ee 8a\	.	8a 8A\	.	8c# 8A\	.	.	.	.	.	.	.	.	.
.	.	.	.	.	.	.	.	.	.	.	.	.	.	16cc# 16e/	.	16aa 16a\	.	16AA/	.	.	.	.	.	.	.	.	.	.	.	.	.	.	.
8AA/	.	8AA/yy	.	.	.	.	.	.	.	.	.	8e 8c#\	.	16cc# 16e/	.	16aa 16a\	.	16AA/	.	8ee 8a\	.	8a 8A\	.	8c# 8A\	.	.	.	.	.	.	.	.	.
.	.	.	.	.	.	.	.	.	.	.	.	.	.	16cc# 16e/	.	16aaJJ 16a\	.	16AA/	.	.	.	.	.	.	.	.	.	.	.	.	.	.	.
8AA/	.	8AA/yy	.	.	.	.	.	.	.	.	.	8e 8c#\	.	16cc# 16e/	.	8aa 8a\	.	16AA/	.	8ee 8a\	.	8a 8A\	.	8c# 8A\	.	.	8a\L]	.	8aa/L]	.	.	.	.
.	.	.	.	.	.	.	.	.	.	.	.	.	.	16cc# 16e/	.	.	.	16AA/	.	.	.	.	.	.	.	.	.	.	.	.	.	.	.
8AA/	.	8AA/yy	.	.	.	.	.	.	.	.	.	8e 8c#\	.	16cc# 16e/	.	16gg#X\LL	.	16AA/	.	8ee 8a\	.	8a 8A\	.	8c# 8A\	.	.	16g#\L	.	16gg#X/L	.	.	.	.
.	.	.	.	.	.	.	.	.	.	.	.	.	.	16cc# 16e/	.	16aa\	.	16AA/	.	.	.	.	.	.	.	.	16a\	.	16aa/	.	.	.	.
8AA/J	.	8AA/Jyy	.	.	.	.	.	.	.	.	.	8eJ 8c#\	.	16cc# 16e/	.	16bb\	.	16AA/	.	8eeJ 8a\	.	8aJ 8A\	.	8c#J 8A\	.	.	16b\	.	16bb/	.	.	.	.
.	.	.	.	.	.	.	.	.	.	.	.	.	.	16cc#JJ 16e/	.	16aa\JJ	.	16AA/JJ	.	.	.	.	.	.	.	.	16a\JJ	.	16aa/JJ	.	.	.	.
*Xtremolo	*	*Xtremolo	*	*	*	*	*	*	*	*	*	*Xtremolo	*	*	*	*	*	*	*	*	*	*	*	*	*	*	*	*	*	*	*	*	*
*	*	*	*	*	*	*	*	*	*	*	*	*	*	*	*	*	*	*	*	*	*	*	*	*	*	*v	*v	*	*	*	*	*	*
*	*	*	*	*	*	*	*	*	*	*	*	*	*	*	*	*	*	*	*	*	*	*	*	*	*	*	*	*v	*v	*	*	*
!!pagebreak:original
=31	=31	=31	=31	=31	=31	=31	=31	=31	=31	=31	=31	=31	=31	=31	=31	=31	=31	=31	=31	=31	=31	=31	=31	=31	=31	=31	=31	=31	=31	=31	=31
*	*	*	*	*	*	*	*	*	*	*	*	*	*	*	*	*	*	*	*	*^	*	*	*	*^	*	*	*	*	*	*	*
!	!	!LO:TX:a:t=piu mosso.:color=grey	!	!	!	!	!	!	!	!	!	!	!	!	!	!LO:TX:a:t=piu mosso.:color=grey	!	!	!	!	!	!	!	!	!	!	!	!	!	!	!	!LO:TX:a:t=piu mosso.:color=grey	!
4D\	.	4D\	.	4D\	-[ro!]	4d\	-[ro!]	.	4dd 4f#\	-[ro!]	.	4d\	.	4dd 4d/	.	4dd\	.	4D\	.	4dd/	4dd\	.	4f# 4d\	.	4d 4D\	4ryy	.	4dd 4f#\	.	4ff# 4dd\	.	4ddd\	.
16r	.	16r	.	8r	.	8r	.	.	8r	.	.	16r	.	16r	.	16r	.	16r	.	16r	8ryy	.	16r	.	16r	16ryy	.	16r	.	16r	.	16r	.
!	!	!	!	!	!	!	!	!	!	!	!	!	!	!LO:TX:t=P:problem:poprawione dźwięki	!	!	!	!	!	!	!	!	!	!	!	!	!	!	!	!	!	!	!
16B\	.	16B 16D\	.	.	.	.	.	.	.	.	.	16b 16d\	.	16dd 16f#/	.	16ff# 16dd\	.	16D\	.	16ff# 16dd\	.	.	16f# 16d\	.	16B/	16B\	.	16dd 16f#\	.	16ff# 16dd\	.	16fff# 16ddd\	.
!	!	!	!	!	!	!	!	!	!	!	!	!	!	!LO:TX:t=P:problem:poprawione dźwięki	!	!	!	!	!	!	!	!	!	!	!	!	!	!	!	!	!	!	!
4B\	.	4B 4D\	.	4r	.	4r	.	.	4r	.	.	4b 4d\	.	4dd 4f#/	.	4ff# 4dd\	.	4D\	.	4ff# 4dd\	4ryy	.	4f# 4d\	.	4B/	4B\	.	4dd 4f#\	.	4ff# 4dd\	.	4fff# 4ddd\	.
!LO:TX:b:t=6:color=grey	!	!	!	!	!	!	!	!	!	!	!	!	!	!	!	!	!	!	!	!	!	!	!	!	!	!	!	!	!	!	!	!	!
16r	.	16r	.	8r	.	8r	.	.	8r	.	.	16r	.	16r	.	16r	.	16r	.	16r	8ryy	.	16r	.	16r	16ryy	.	16r	.	16r	.	16r	.
16A\	.	16A 16D\	.	.	.	.	.	.	.	.	.	16a 16d\	.	16ff# 16a\	.	16aa 16dd\	.	16D\	.	16aa 16a\	.	.	16f# 16d\	.	16A/	16A\	.	16ff# 16a\	.	16ff# 16dd\	.	16fff# 16ddd\	.
*	*	*	*	*	*	*	*	*	*	*	*	*	*	*	*	*	*	*	*	*v	*v	*	*	*	*	*	*	*	*	*	*	*	*
=32	=32	=32	=32	=32	=32	=32	=32	=32	=32	=32	=32	=32	=32	=32	=32	=32	=32	=32	=32	=32	=32	=32	=32	=32	=32	=32	=32	=32	=32	=32	=32	=32
8A\	.	8A 8D\	.	2.r	.	2.r	.	.	2.r	.	.	8a 8d\	.	8ff# 8a\	.	8aa 8dd\	.	8D\	.	8aa 8a\	.	8f# 8d\	.	8A/	8A\	.	8ff# 8a\	.	8ff# 8dd\	.	8fff# 8ddd\	.
8r	.	8r	.	.	.	.	.	.	.	.	.	8r	.	8r	.	8r	.	8r	.	8r	.	8r	.	8r	8ryy	.	8r	.	8r	.	8r	.
8r	.	8r	.	.	.	.	.	.	.	.	.	8r	.	8r	.	8r	.	8r	.	8r	.	8r	.	8r	8ryy	.	8r	.	8r	.	8r	.
8A\	.	8AA/	.	.	.	.	.	.	.	.	.	8a 8e 8A\	.	8gg 8a\	.	8ccc# 8a\	.	8AA/	.	8ee 8a\	.	8e 8A/	.	8A 8AA/	4ryy	.	8cc# 8e\	.	8ee 8g\	.	8eee 8ccc#\	.
8r	.	8r	.	.	.	.	.	.	.	.	.	8r	.	8r	.	8r	.	8r	.	8r	.	8r	.	8r	.	.	8r	.	8r	.	8r	.
8r	.	8r	.	.	.	.	.	.	.	.	.	8r	.	8r	.	8r	.	8r	.	8r	.	8r	.	8r	8ryy	.	8r	.	8r	.	8r	.
*	*	*	*	*	*	*	*	*	*	*	*	*	*	*	*	*	*	*	*	*	*	*	*	*v	*v	*	*	*	*	*	*	*
=33	=33	=33	=33	=33	=33	=33	=33	=33	=33	=33	=33	=33	=33	=33	=33	=33	=33	=33	=33	=33	=33	=33	=33	=33	=33	=33	=33	=33	=33	=33	=33
!	!	!	!	!	!	!	!	!	!	!	!	!	!	!	!	!	!	!	!	!	!	!	!	!	!	!LO:SIC:v:n=1:o=8b 8d\	!	!	!	!	!
8D\	.	8DD/	.	2.r	.	2.r	.	.	2.r	.	.	8a 8d 8A 8F#\	.	8ff# 8dd 8d\	.	8ddd 8a 8d\	.	8D\	.	8dd 8f#/	.	8d 8F#/	.	8A 8D\	.	8a	.	8dd 8f#/	.	8ddd\	.
8r	.	8r	.	.	.	.	.	.	.	.	.	8r	.	8r	.	8r	.	8r	.	8r	.	8r	.	8r	.	8r	.	8r	.	8r	.
8r	.	8r	.	.	.	.	.	.	.	.	.	8r	.	8r	.	8r	.	8r	.	8r	.	8r	.	8r	.	8r	.	8r	.	8r	.
4r	.	4r	.	.	.	.	.	.	.	.	.	4r	.	4r	.	4r	.	4r	.	4r	.	4r	.	4r	.	4r	.	4r	.	4r	.
8r	.	8r	.	.	.	.	.	.	.	.	.	8r	.	8r	.	8r	.	8r	.	8r	.	8r	.	8r	.	8r	.	8r	.	8r	.
!	!	!	!	!	!	!	!	!	!	!	!	!	!	!	!	!	!	!	!	!	!	!	!	!	!	!	!	!	!	!LO:TX:a:t=Tacet..:color=grey	!
==	==	==	==	==	==	==	==	==	==	==	==	==	==	==	==	==	==	==	==	==	==	==	==	==	==	==	==	==	==	==	==
*-	*-	*-	*-	*-	*-	*-	*-	*-	*-	*-	*-	*-	*-	*-	*-	*-	*-	*-	*-	*-	*-	*-	*-	*-	*-	*-	*-	*-	*-	*-	*-
!!!RDF**kern: > = above
!!!RDF**kern: < = below
!!!RDF**dynam: p = "p."
!!!RDF**dynam: pp = "pp."
!!!RDF**dynam: pp = "mf."
!!!system-decoration: s1,s2,s3,s4,s5,s6,s7,s8,s9,s10[(s11,s12,s13)]s14,s15
!!!ENC: Katarzyna Serwa
!!!END: 2021-10-09
!!!ENC: Marcin Jachim
!!!END: 2021-09-06
